public/luts/classic/bw.cube
TITLE "Black & White"
LUT_3D_SIZE 2

0.000000 0.000000 0.000000
0.212600 0.212600 0.212600
0.715200 0.715200 0.715200
0.927800 0.927800 0.927800
0.072200 0.072200 0.072200
0.284800 0.284800 0.284800
0.787400 0.787400 0.787400
1.000000 1.000000 1.000000
