public/luts/classic/cool.cube
TITLE "Cool"
LUT_3D_SIZE 2

0.000000 0.015000 0.030000
0.860000 0.015000 0.030000
0.000000 0.985000 0.030000
0.860000 0.985000 0.030000
0.000000 0.015000 1.000000
0.860000 0.015000 1.000000
0.000000 0.985000 1.000000
0.860000 0.985000 1.000000
