public/luts/classic/filmic-contrast.cube
TITLE "Filmic Contrast"
LUT_3D_SIZE 17
0.000000 0.000000 0.000000
0.034302 0.000000 0.000000
0.079883 0.000000 0.000000
0.135132 0.000000 0.000000
0.198437 0.000000 0.000000
0.268188 0.000000 0.000000
0.342773 0.000000 0.000000
0.420581 0.000000 0.000000
0.500000 0.000000 0.000000
0.579419 0.000000 0.000000
0.657227 0.000000 0.000000
0.731812 0.000000 0.000000
0.801562 0.000000 0.000000
0.864868 0.000000 0.000000
0.920117 0.000000 0.000000
0.965698 0.000000 0.000000
1.000000 0.000000 0.000000
0.000000 0.034302 0.000000
0.034302 0.034302 0.000000
0.079883 0.034302 0.000000
0.135132 0.034302 0.000000
0.198437 0.034302 0.000000
0.268188 0.034302 0.000000
0.342773 0.034302 0.000000
0.420581 0.034302 0.000000
0.500000 0.034302 0.000000
0.579419 0.034302 0.000000
0.657227 0.034302 0.000000
0.731812 0.034302 0.000000
0.801562 0.034302 0.000000
0.864868 0.034302 0.000000
0.920117 0.034302 0.000000
0.965698 0.034302 0.000000
1.000000 0.034302 0.000000
0.000000 0.079883 0.000000
0.034302 0.079883 0.000000
0.079883 0.079883 0.000000
0.135132 0.079883 0.000000
0.198437 0.079883 0.000000
0.268188 0.079883 0.000000
0.342773 0.079883 0.000000
0.420581 0.079883 0.000000
0.500000 0.079883 0.000000
0.579419 0.079883 0.000000
0.657227 0.079883 0.000000
0.731812 0.079883 0.000000
0.801562 0.079883 0.000000
0.864868 0.079883 0.000000
0.920117 0.079883 0.000000
0.965698 0.079883 0.000000
1.000000 0.079883 0.000000
0.000000 0.135132 0.000000
0.034302 0.135132 0.000000
0.079883 0.135132 0.000000
0.135132 0.135132 0.000000
0.198437 0.135132 0.000000
0.268188 0.135132 0.000000
0.342773 0.135132 0.000000
0.420581 0.135132 0.000000
0.500000 0.135132 0.000000
0.579419 0.135132 0.000000
0.657227 0.135132 0.000000
0.731812 0.135132 0.000000
0.801562 0.135132 0.000000
0.864868 0.135132 0.000000
0.920117 0.135132 0.000000
0.965698 0.135132 0.000000
1.000000 0.135132 0.000000
0.000000 0.198437 0.000000
0.034302 0.198437 0.000000
0.079883 0.198437 0.000000
0.135132 0.198437 0.000000
0.198437 0.198437 0.000000
0.268188 0.198437 0.000000
0.342773 0.198437 0.000000
0.420581 0.198437 0.000000
0.500000 0.198437 0.000000
0.579419 0.198437 0.000000
0.657227 0.198437 0.000000
0.731812 0.198437 0.000000
0.801562 0.198437 0.000000
0.864868 0.198437 0.000000
0.920117 0.198437 0.000000
0.965698 0.198437 0.000000
1.000000 0.198437 0.000000
0.000000 0.268188 0.000000
0.034302 0.268188 0.000000
0.079883 0.268188 0.000000
0.135132 0.268188 0.000000
0.198437 0.268188 0.000000
0.268188 0.268188 0.000000
0.342773 0.268188 0.000000
0.420581 0.268188 0.000000
0.500000 0.268188 0.000000
0.579419 0.268188 0.000000
0.657227 0.268188 0.000000
0.731812 0.268188 0.000000
0.801562 0.268188 0.000000
0.864868 0.268188 0.000000
0.920117 0.268188 0.000000
0.965698 0.268188 0.000000
1.000000 0.268188 0.000000
0.000000 0.342773 0.000000
0.034302 0.342773 0.000000
0.079883 0.342773 0.000000
0.135132 0.342773 0.000000
0.198437 0.342773 0.000000
0.268188 0.342773 0.000000
0.342773 0.342773 0.000000
0.420581 0.342773 0.000000
0.500000 0.342773 0.000000
0.579419 0.342773 0.000000
0.657227 0.342773 0.000000
0.731812 0.342773 0.000000
0.801562 0.342773 0.000000
0.864868 0.342773 0.000000
0.920117 0.342773 0.000000
0.965698 0.342773 0.000000
1.000000 0.342773 0.000000
0.000000 0.420581 0.000000
0.034302 0.420581 0.000000
0.079883 0.420581 0.000000
0.135132 0.420581 0.000000
0.198437 0.420581 0.000000
0.268188 0.420581 0.000000
0.342773 0.420581 0.000000
0.420581 0.420581 0.000000
0.500000 0.420581 0.000000
0.579419 0.420581 0.000000
0.657227 0.420581 0.000000
0.731812 0.420581 0.000000
0.801562 0.420581 0.000000
0.864868 0.420581 0.000000
0.920117 0.420581 0.000000
0.965698 0.420581 0.000000
1.000000 0.420581 0.000000
0.000000 0.500000 0.000000
0.034302 0.500000 0.000000
0.079883 0.500000 0.000000
0.135132 0.500000 0.000000
0.198437 0.500000 0.000000
0.268188 0.500000 0.000000
0.342773 0.500000 0.000000
0.420581 0.500000 0.000000
0.500000 0.500000 0.000000
0.579419 0.500000 0.000000
0.657227 0.500000 0.000000
0.731812 0.500000 0.000000
0.801562 0.500000 0.000000
0.864868 0.500000 0.000000
0.920117 0.500000 0.000000
0.965698 0.500000 0.000000
1.000000 0.500000 0.000000
0.000000 0.579419 0.000000
0.034302 0.579419 0.000000
0.079883 0.579419 0.000000
0.135132 0.579419 0.000000
0.198437 0.579419 0.000000
0.268188 0.579419 0.000000
0.342773 0.579419 0.000000
0.420581 0.579419 0.000000
0.500000 0.579419 0.000000
0.579419 0.579419 0.000000
0.657227 0.579419 0.000000
0.731812 0.579419 0.000000
0.801562 0.579419 0.000000
0.864868 0.579419 0.000000
0.920117 0.579419 0.000000
0.965698 0.579419 0.000000
1.000000 0.579419 0.000000
0.000000 0.657227 0.000000
0.034302 0.657227 0.000000
0.079883 0.657227 0.000000
0.135132 0.657227 0.000000
0.198437 0.657227 0.000000
0.268188 0.657227 0.000000
0.342773 0.657227 0.000000
0.420581 0.657227 0.000000
0.500000 0.657227 0.000000
0.579419 0.657227 0.000000
0.657227 0.657227 0.000000
0.731812 0.657227 0.000000
0.801562 0.657227 0.000000
0.864868 0.657227 0.000000
0.920117 0.657227 0.000000
0.965698 0.657227 0.000000
1.000000 0.657227 0.000000
0.000000 0.731812 0.000000
0.034302 0.731812 0.000000
0.079883 0.731812 0.000000
0.135132 0.731812 0.000000
0.198437 0.731812 0.000000
0.268188 0.731812 0.000000
0.342773 0.731812 0.000000
0.420581 0.731812 0.000000
0.500000 0.731812 0.000000
0.579419 0.731812 0.000000
0.657227 0.731812 0.000000
0.731812 0.731812 0.000000
0.801562 0.731812 0.000000
0.864868 0.731812 0.000000
0.920117 0.731812 0.000000
0.965698 0.731812 0.000000
1.000000 0.731812 0.000000
0.000000 0.801562 0.000000
0.034302 0.801562 0.000000
0.079883 0.801562 0.000000
0.135132 0.801562 0.000000
0.198437 0.801562 0.000000
0.268188 0.801562 0.000000
0.342773 0.801562 0.000000
0.420581 0.801562 0.000000
0.500000 0.801562 0.000000
0.579419 0.801562 0.000000
0.657227 0.801562 0.000000
0.731812 0.801562 0.000000
0.801562 0.801562 0.000000
0.864868 0.801562 0.000000
0.920117 0.801562 0.000000
0.965698 0.801562 0.000000
1.000000 0.801562 0.000000
0.000000 0.864868 0.000000
0.034302 0.864868 0.000000
0.079883 0.864868 0.000000
0.135132 0.864868 0.000000
0.198437 0.864868 0.000000
0.268188 0.864868 0.000000
0.342773 0.864868 0.000000
0.420581 0.864868 0.000000
0.500000 0.864868 0.000000
0.579419 0.864868 0.000000
0.657227 0.864868 0.000000
0.731812 0.864868 0.000000
0.801562 0.864868 0.000000
0.864868 0.864868 0.000000
0.920117 0.864868 0.000000
0.965698 0.864868 0.000000
1.000000 0.864868 0.000000
0.000000 0.920117 0.000000
0.034302 0.920117 0.000000
0.079883 0.920117 0.000000
0.135132 0.920117 0.000000
0.198437 0.920117 0.000000
0.268188 0.920117 0.000000
0.342773 0.920117 0.000000
0.420581 0.920117 0.000000
0.500000 0.920117 0.000000
0.579419 0.920117 0.000000
0.657227 0.920117 0.000000
0.731812 0.920117 0.000000
0.801562 0.920117 0.000000
0.864868 0.920117 0.000000
0.920117 0.920117 0.000000
0.965698 0.920117 0.000000
1.000000 0.920117 0.000000
0.000000 0.965698 0.000000
0.034302 0.965698 0.000000
0.079883 0.965698 0.000000
0.135132 0.965698 0.000000
0.198437 0.965698 0.000000
0.268188 0.965698 0.000000
0.342773 0.965698 0.000000
0.420581 0.965698 0.000000
0.500000 0.965698 0.000000
0.579419 0.965698 0.000000
0.657227 0.965698 0.000000
0.731812 0.965698 0.000000
0.801562 0.965698 0.000000
0.864868 0.965698 0.000000
0.920117 0.965698 0.000000
0.965698 0.965698 0.000000
1.000000 0.965698 0.000000
0.000000 1.000000 0.000000
0.034302 1.000000 0.000000
0.079883 1.000000 0.000000
0.135132 1.000000 0.000000
0.198437 1.000000 0.000000
0.268188 1.000000 0.000000
0.342773 1.000000 0.000000
0.420581 1.000000 0.000000
0.500000 1.000000 0.000000
0.579419 1.000000 0.000000
0.657227 1.000000 0.000000
0.731812 1.000000 0.000000
0.801562 1.000000 0.000000
0.864868 1.000000 0.000000
0.920117 1.000000 0.000000
0.965698 1.000000 0.000000
1.000000 1.000000 0.000000
0.000000 0.000000 0.034302
0.034302 0.000000 0.034302
0.079883 0.000000 0.034302
0.135132 0.000000 0.034302
0.198437 0.000000 0.034302
0.268188 0.000000 0.034302
0.342773 0.000000 0.034302
0.420581 0.000000 0.034302
0.500000 0.000000 0.034302
0.579419 0.000000 0.034302
0.657227 0.000000 0.034302
0.731812 0.000000 0.034302
0.801562 0.000000 0.034302
0.864868 0.000000 0.034302
0.920117 0.000000 0.034302
0.965698 0.000000 0.034302
1.000000 0.000000 0.034302
0.000000 0.034302 0.034302
0.034302 0.034302 0.034302
0.079883 0.034302 0.034302
0.135132 0.034302 0.034302
0.198437 0.034302 0.034302
0.268188 0.034302 0.034302
0.342773 0.034302 0.034302
0.420581 0.034302 0.034302
0.500000 0.034302 0.034302
0.579419 0.034302 0.034302
0.657227 0.034302 0.034302
0.731812 0.034302 0.034302
0.801562 0.034302 0.034302
0.864868 0.034302 0.034302
0.920117 0.034302 0.034302
0.965698 0.034302 0.034302
1.000000 0.034302 0.034302
0.000000 0.079883 0.034302
0.034302 0.079883 0.034302
0.079883 0.079883 0.034302
0.135132 0.079883 0.034302
0.198437 0.079883 0.034302
0.268188 0.079883 0.034302
0.342773 0.079883 0.034302
0.420581 0.079883 0.034302
0.500000 0.079883 0.034302
0.579419 0.079883 0.034302
0.657227 0.079883 0.034302
0.731812 0.079883 0.034302
0.801562 0.079883 0.034302
0.864868 0.079883 0.034302
0.920117 0.079883 0.034302
0.965698 0.079883 0.034302
1.000000 0.079883 0.034302
0.000000 0.135132 0.034302
0.034302 0.135132 0.034302
0.079883 0.135132 0.034302
0.135132 0.135132 0.034302
0.198437 0.135132 0.034302
0.268188 0.135132 0.034302
0.342773 0.135132 0.034302
0.420581 0.135132 0.034302
0.500000 0.135132 0.034302
0.579419 0.135132 0.034302
0.657227 0.135132 0.034302
0.731812 0.135132 0.034302
0.801562 0.135132 0.034302
0.864868 0.135132 0.034302
0.920117 0.135132 0.034302
0.965698 0.135132 0.034302
1.000000 0.135132 0.034302
0.000000 0.198437 0.034302
0.034302 0.198437 0.034302
0.079883 0.198437 0.034302
0.135132 0.198437 0.034302
0.198437 0.198437 0.034302
0.268188 0.198437 0.034302
0.342773 0.198437 0.034302
0.420581 0.198437 0.034302
0.500000 0.198437 0.034302
0.579419 0.198437 0.034302
0.657227 0.198437 0.034302
0.731812 0.198437 0.034302
0.801562 0.198437 0.034302
0.864868 0.198437 0.034302
0.920117 0.198437 0.034302
0.965698 0.198437 0.034302
1.000000 0.198437 0.034302
0.000000 0.268188 0.034302
0.034302 0.268188 0.034302
0.079883 0.268188 0.034302
0.135132 0.268188 0.034302
0.198437 0.268188 0.034302
0.268188 0.268188 0.034302
0.342773 0.268188 0.034302
0.420581 0.268188 0.034302
0.500000 0.268188 0.034302
0.579419 0.268188 0.034302
0.657227 0.268188 0.034302
0.731812 0.268188 0.034302
0.801562 0.268188 0.034302
0.864868 0.268188 0.034302
0.920117 0.268188 0.034302
0.965698 0.268188 0.034302
1.000000 0.268188 0.034302
0.000000 0.342773 0.034302
0.034302 0.342773 0.034302
0.079883 0.342773 0.034302
0.135132 0.342773 0.034302
0.198437 0.342773 0.034302
0.268188 0.342773 0.034302
0.342773 0.342773 0.034302
0.420581 0.342773 0.034302
0.500000 0.342773 0.034302
0.579419 0.342773 0.034302
0.657227 0.342773 0.034302
0.731812 0.342773 0.034302
0.801562 0.342773 0.034302
0.864868 0.342773 0.034302
0.920117 0.342773 0.034302
0.965698 0.342773 0.034302
1.000000 0.342773 0.034302
0.000000 0.420581 0.034302
0.034302 0.420581 0.034302
0.079883 0.420581 0.034302
0.135132 0.420581 0.034302
0.198437 0.420581 0.034302
0.268188 0.420581 0.034302
0.342773 0.420581 0.034302
0.420581 0.420581 0.034302
0.500000 0.420581 0.034302
0.579419 0.420581 0.034302
0.657227 0.420581 0.034302
0.731812 0.420581 0.034302
0.801562 0.420581 0.034302
0.864868 0.420581 0.034302
0.920117 0.420581 0.034302
0.965698 0.420581 0.034302
1.000000 0.420581 0.034302
0.000000 0.500000 0.034302
0.034302 0.500000 0.034302
0.079883 0.500000 0.034302
0.135132 0.500000 0.034302
0.198437 0.500000 0.034302
0.268188 0.500000 0.034302
0.342773 0.500000 0.034302
0.420581 0.500000 0.034302
0.500000 0.500000 0.034302
0.579419 0.500000 0.034302
0.657227 0.500000 0.034302
0.731812 0.500000 0.034302
0.801562 0.500000 0.034302
0.864868 0.500000 0.034302
0.920117 0.500000 0.034302
0.965698 0.500000 0.034302
1.000000 0.500000 0.034302
0.000000 0.579419 0.034302
0.034302 0.579419 0.034302
0.079883 0.579419 0.034302
0.135132 0.579419 0.034302
0.198437 0.579419 0.034302
0.268188 0.579419 0.034302
0.342773 0.579419 0.034302
0.420581 0.579419 0.034302
0.500000 0.579419 0.034302
0.579419 0.579419 0.034302
0.657227 0.579419 0.034302
0.731812 0.579419 0.034302
0.801562 0.579419 0.034302
0.864868 0.579419 0.034302
0.920117 0.579419 0.034302
0.965698 0.579419 0.034302
1.000000 0.579419 0.034302
0.000000 0.657227 0.034302
0.034302 0.657227 0.034302
0.079883 0.657227 0.034302
0.135132 0.657227 0.034302
0.198437 0.657227 0.034302
0.268188 0.657227 0.034302
0.342773 0.657227 0.034302
0.420581 0.657227 0.034302
0.500000 0.657227 0.034302
0.579419 0.657227 0.034302
0.657227 0.657227 0.034302
0.731812 0.657227 0.034302
0.801562 0.657227 0.034302
0.864868 0.657227 0.034302
0.920117 0.657227 0.034302
0.965698 0.657227 0.034302
1.000000 0.657227 0.034302
0.000000 0.731812 0.034302
0.034302 0.731812 0.034302
0.079883 0.731812 0.034302
0.135132 0.731812 0.034302
0.198437 0.731812 0.034302
0.268188 0.731812 0.034302
0.342773 0.731812 0.034302
0.420581 0.731812 0.034302
0.500000 0.731812 0.034302
0.579419 0.731812 0.034302
0.657227 0.731812 0.034302
0.731812 0.731812 0.034302
0.801562 0.731812 0.034302
0.864868 0.731812 0.034302
0.920117 0.731812 0.034302
0.965698 0.731812 0.034302
1.000000 0.731812 0.034302
0.000000 0.801562 0.034302
0.034302 0.801562 0.034302
0.079883 0.801562 0.034302
0.135132 0.801562 0.034302
0.198437 0.801562 0.034302
0.268188 0.801562 0.034302
0.342773 0.801562 0.034302
0.420581 0.801562 0.034302
0.500000 0.801562 0.034302
0.579419 0.801562 0.034302
0.657227 0.801562 0.034302
0.731812 0.801562 0.034302
0.801562 0.801562 0.034302
0.864868 0.801562 0.034302
0.920117 0.801562 0.034302
0.965698 0.801562 0.034302
1.000000 0.801562 0.034302
0.000000 0.864868 0.034302
0.034302 0.864868 0.034302
0.079883 0.864868 0.034302
0.135132 0.864868 0.034302
0.198437 0.864868 0.034302
0.268188 0.864868 0.034302
0.342773 0.864868 0.034302
0.420581 0.864868 0.034302
0.500000 0.864868 0.034302
0.579419 0.864868 0.034302
0.657227 0.864868 0.034302
0.731812 0.864868 0.034302
0.801562 0.864868 0.034302
0.864868 0.864868 0.034302
0.920117 0.864868 0.034302
0.965698 0.864868 0.034302
1.000000 0.864868 0.034302
0.000000 0.920117 0.034302
0.034302 0.920117 0.034302
0.079883 0.920117 0.034302
0.135132 0.920117 0.034302
0.198437 0.920117 0.034302
0.268188 0.920117 0.034302
0.342773 0.920117 0.034302
0.420581 0.920117 0.034302
0.500000 0.920117 0.034302
0.579419 0.920117 0.034302
0.657227 0.920117 0.034302
0.731812 0.920117 0.034302
0.801562 0.920117 0.034302
0.864868 0.920117 0.034302
0.920117 0.920117 0.034302
0.965698 0.920117 0.034302
1.000000 0.920117 0.034302
0.000000 0.965698 0.034302
0.034302 0.965698 0.034302
0.079883 0.965698 0.034302
0.135132 0.965698 0.034302
0.198437 0.965698 0.034302
0.268188 0.965698 0.034302
0.342773 0.965698 0.034302
0.420581 0.965698 0.034302
0.500000 0.965698 0.034302
0.579419 0.965698 0.034302
0.657227 0.965698 0.034302
0.731812 0.965698 0.034302
0.801562 0.965698 0.034302
0.864868 0.965698 0.034302
0.920117 0.965698 0.034302
0.965698 0.965698 0.034302
1.000000 0.965698 0.034302
0.000000 1.000000 0.034302
0.034302 1.000000 0.034302
0.079883 1.000000 0.034302
0.135132 1.000000 0.034302
0.198437 1.000000 0.034302
0.268188 1.000000 0.034302
0.342773 1.000000 0.034302
0.420581 1.000000 0.034302
0.500000 1.000000 0.034302
0.579419 1.000000 0.034302
0.657227 1.000000 0.034302
0.731812 1.000000 0.034302
0.801562 1.000000 0.034302
0.864868 1.000000 0.034302
0.920117 1.000000 0.034302
0.965698 1.000000 0.034302
1.000000 1.000000 0.034302
0.000000 0.000000 0.079883
0.034302 0.000000 0.079883
0.079883 0.000000 0.079883
0.135132 0.000000 0.079883
0.198437 0.000000 0.079883
0.268188 0.000000 0.079883
0.342773 0.000000 0.079883
0.420581 0.000000 0.079883
0.500000 0.000000 0.079883
0.579419 0.000000 0.079883
0.657227 0.000000 0.079883
0.731812 0.000000 0.079883
0.801562 0.000000 0.079883
0.864868 0.000000 0.079883
0.920117 0.000000 0.079883
0.965698 0.000000 0.079883
1.000000 0.000000 0.079883
0.000000 0.034302 0.079883
0.034302 0.034302 0.079883
0.079883 0.034302 0.079883
0.135132 0.034302 0.079883
0.198437 0.034302 0.079883
0.268188 0.034302 0.079883
0.342773 0.034302 0.079883
0.420581 0.034302 0.079883
0.500000 0.034302 0.079883
0.579419 0.034302 0.079883
0.657227 0.034302 0.079883
0.731812 0.034302 0.079883
0.801562 0.034302 0.079883
0.864868 0.034302 0.079883
0.920117 0.034302 0.079883
0.965698 0.034302 0.079883
1.000000 0.034302 0.079883
0.000000 0.079883 0.079883
0.034302 0.079883 0.079883
0.079883 0.079883 0.079883
0.135132 0.079883 0.079883
0.198437 0.079883 0.079883
0.268188 0.079883 0.079883
0.342773 0.079883 0.079883
0.420581 0.079883 0.079883
0.500000 0.079883 0.079883
0.579419 0.079883 0.079883
0.657227 0.079883 0.079883
0.731812 0.079883 0.079883
0.801562 0.079883 0.079883
0.864868 0.079883 0.079883
0.920117 0.079883 0.079883
0.965698 0.079883 0.079883
1.000000 0.079883 0.079883
0.000000 0.135132 0.079883
0.034302 0.135132 0.079883
0.079883 0.135132 0.079883
0.135132 0.135132 0.079883
0.198437 0.135132 0.079883
0.268188 0.135132 0.079883
0.342773 0.135132 0.079883
0.420581 0.135132 0.079883
0.500000 0.135132 0.079883
0.579419 0.135132 0.079883
0.657227 0.135132 0.079883
0.731812 0.135132 0.079883
0.801562 0.135132 0.079883
0.864868 0.135132 0.079883
0.920117 0.135132 0.079883
0.965698 0.135132 0.079883
1.000000 0.135132 0.079883
0.000000 0.198437 0.079883
0.034302 0.198437 0.079883
0.079883 0.198437 0.079883
0.135132 0.198437 0.079883
0.198437 0.198437 0.079883
0.268188 0.198437 0.079883
0.342773 0.198437 0.079883
0.420581 0.198437 0.079883
0.500000 0.198437 0.079883
0.579419 0.198437 0.079883
0.657227 0.198437 0.079883
0.731812 0.198437 0.079883
0.801562 0.198437 0.079883
0.864868 0.198437 0.079883
0.920117 0.198437 0.079883
0.965698 0.198437 0.079883
1.000000 0.198437 0.079883
0.000000 0.268188 0.079883
0.034302 0.268188 0.079883
0.079883 0.268188 0.079883
0.135132 0.268188 0.079883
0.198437 0.268188 0.079883
0.268188 0.268188 0.079883
0.342773 0.268188 0.079883
0.420581 0.268188 0.079883
0.500000 0.268188 0.079883
0.579419 0.268188 0.079883
0.657227 0.268188 0.079883
0.731812 0.268188 0.079883
0.801562 0.268188 0.079883
0.864868 0.268188 0.079883
0.920117 0.268188 0.079883
0.965698 0.268188 0.079883
1.000000 0.268188 0.079883
0.000000 0.342773 0.079883
0.034302 0.342773 0.079883
0.079883 0.342773 0.079883
0.135132 0.342773 0.079883
0.198437 0.342773 0.079883
0.268188 0.342773 0.079883
0.342773 0.342773 0.079883
0.420581 0.342773 0.079883
0.500000 0.342773 0.079883
0.579419 0.342773 0.079883
0.657227 0.342773 0.079883
0.731812 0.342773 0.079883
0.801562 0.342773 0.079883
0.864868 0.342773 0.079883
0.920117 0.342773 0.079883
0.965698 0.342773 0.079883
1.000000 0.342773 0.079883
0.000000 0.420581 0.079883
0.034302 0.420581 0.079883
0.079883 0.420581 0.079883
0.135132 0.420581 0.079883
0.198437 0.420581 0.079883
0.268188 0.420581 0.079883
0.342773 0.420581 0.079883
0.420581 0.420581 0.079883
0.500000 0.420581 0.079883
0.579419 0.420581 0.079883
0.657227 0.420581 0.079883
0.731812 0.420581 0.079883
0.801562 0.420581 0.079883
0.864868 0.420581 0.079883
0.920117 0.420581 0.079883
0.965698 0.420581 0.079883
1.000000 0.420581 0.079883
0.000000 0.500000 0.079883
0.034302 0.500000 0.079883
0.079883 0.500000 0.079883
0.135132 0.500000 0.079883
0.198437 0.500000 0.079883
0.268188 0.500000 0.079883
0.342773 0.500000 0.079883
0.420581 0.500000 0.079883
0.500000 0.500000 0.079883
0.579419 0.500000 0.079883
0.657227 0.500000 0.079883
0.731812 0.500000 0.079883
0.801562 0.500000 0.079883
0.864868 0.500000 0.079883
0.920117 0.500000 0.079883
0.965698 0.500000 0.079883
1.000000 0.500000 0.079883
0.000000 0.579419 0.079883
0.034302 0.579419 0.079883
0.079883 0.579419 0.079883
0.135132 0.579419 0.079883
0.198437 0.579419 0.079883
0.268188 0.579419 0.079883
0.342773 0.579419 0.079883
0.420581 0.579419 0.079883
0.500000 0.579419 0.079883
0.579419 0.579419 0.079883
0.657227 0.579419 0.079883
0.731812 0.579419 0.079883
0.801562 0.579419 0.079883
0.864868 0.579419 0.079883
0.920117 0.579419 0.079883
0.965698 0.579419 0.079883
1.000000 0.579419 0.079883
0.000000 0.657227 0.079883
0.034302 0.657227 0.079883
0.079883 0.657227 0.079883
0.135132 0.657227 0.079883
0.198437 0.657227 0.079883
0.268188 0.657227 0.079883
0.342773 0.657227 0.079883
0.420581 0.657227 0.079883
0.500000 0.657227 0.079883
0.579419 0.657227 0.079883
0.657227 0.657227 0.079883
0.731812 0.657227 0.079883
0.801562 0.657227 0.079883
0.864868 0.657227 0.079883
0.920117 0.657227 0.079883
0.965698 0.657227 0.079883
1.000000 0.657227 0.079883
0.000000 0.731812 0.079883
0.034302 0.731812 0.079883
0.079883 0.731812 0.079883
0.135132 0.731812 0.079883
0.198437 0.731812 0.079883
0.268188 0.731812 0.079883
0.342773 0.731812 0.079883
0.420581 0.731812 0.079883
0.500000 0.731812 0.079883
0.579419 0.731812 0.079883
0.657227 0.731812 0.079883
0.731812 0.731812 0.079883
0.801562 0.731812 0.079883
0.864868 0.731812 0.079883
0.920117 0.731812 0.079883
0.965698 0.731812 0.079883
1.000000 0.731812 0.079883
0.000000 0.801562 0.079883
0.034302 0.801562 0.079883
0.079883 0.801562 0.079883
0.135132 0.801562 0.079883
0.198437 0.801562 0.079883
0.268188 0.801562 0.079883
0.342773 0.801562 0.079883
0.420581 0.801562 0.079883
0.500000 0.801562 0.079883
0.579419 0.801562 0.079883
0.657227 0.801562 0.079883
0.731812 0.801562 0.079883
0.801562 0.801562 0.079883
0.864868 0.801562 0.079883
0.920117 0.801562 0.079883
0.965698 0.801562 0.079883
1.000000 0.801562 0.079883
0.000000 0.864868 0.079883
0.034302 0.864868 0.079883
0.079883 0.864868 0.079883
0.135132 0.864868 0.079883
0.198437 0.864868 0.079883
0.268188 0.864868 0.079883
0.342773 0.864868 0.079883
0.420581 0.864868 0.079883
0.500000 0.864868 0.079883
0.579419 0.864868 0.079883
0.657227 0.864868 0.079883
0.731812 0.864868 0.079883
0.801562 0.864868 0.079883
0.864868 0.864868 0.079883
0.920117 0.864868 0.079883
0.965698 0.864868 0.079883
1.000000 0.864868 0.079883
0.000000 0.920117 0.079883
0.034302 0.920117 0.079883
0.079883 0.920117 0.079883
0.135132 0.920117 0.079883
0.198437 0.920117 0.079883
0.268188 0.920117 0.079883
0.342773 0.920117 0.079883
0.420581 0.920117 0.079883
0.500000 0.920117 0.079883
0.579419 0.920117 0.079883
0.657227 0.920117 0.079883
0.731812 0.920117 0.079883
0.801562 0.920117 0.079883
0.864868 0.920117 0.079883
0.920117 0.920117 0.079883
0.965698 0.920117 0.079883
1.000000 0.920117 0.079883
0.000000 0.965698 0.079883
0.034302 0.965698 0.079883
0.079883 0.965698 0.079883
0.135132 0.965698 0.079883
0.198437 0.965698 0.079883
0.268188 0.965698 0.079883
0.342773 0.965698 0.079883
0.420581 0.965698 0.079883
0.500000 0.965698 0.079883
0.579419 0.965698 0.079883
0.657227 0.965698 0.079883
0.731812 0.965698 0.079883
0.801562 0.965698 0.079883
0.864868 0.965698 0.079883
0.920117 0.965698 0.079883
0.965698 0.965698 0.079883
1.000000 0.965698 0.079883
0.000000 1.000000 0.079883
0.034302 1.000000 0.079883
0.079883 1.000000 0.079883
0.135132 1.000000 0.079883
0.198437 1.000000 0.079883
0.268188 1.000000 0.079883
0.342773 1.000000 0.079883
0.420581 1.000000 0.079883
0.500000 1.000000 0.079883
0.579419 1.000000 0.079883
0.657227 1.000000 0.079883
0.731812 1.000000 0.079883
0.801562 1.000000 0.079883
0.864868 1.000000 0.079883
0.920117 1.000000 0.079883
0.965698 1.000000 0.079883
1.000000 1.000000 0.079883
0.000000 0.000000 0.135132
0.034302 0.000000 0.135132
0.079883 0.000000 0.135132
0.135132 0.000000 0.135132
0.198437 0.000000 0.135132
0.268188 0.000000 0.135132
0.342773 0.000000 0.135132
0.420581 0.000000 0.135132
0.500000 0.000000 0.135132
0.579419 0.000000 0.135132
0.657227 0.000000 0.135132
0.731812 0.000000 0.135132
0.801562 0.000000 0.135132
0.864868 0.000000 0.135132
0.920117 0.000000 0.135132
0.965698 0.000000 0.135132
1.000000 0.000000 0.135132
0.000000 0.034302 0.135132
0.034302 0.034302 0.135132
0.079883 0.034302 0.135132
