public/luts/classic/filmic-contrast.cube
TITLE "Filmic Contrast"
LUT_3D_SIZE 9
0.000000 0.000000 0.000000
0.079883 0.000000 0.000000
0.198437 0.000000 0.000000
0.342773 0.000000 0.000000
0.500000 0.000000 0.000000
0.657227 0.000000 0.000000
0.801562 0.000000 0.000000
0.920117 0.000000 0.000000
1.000000 0.000000 0.000000
0.000000 0.079883 0.000000
0.079883 0.079883 0.000000
0.198437 0.079883 0.000000
0.342773 0.079883 0.000000
0.500000 0.079883 0.000000
0.657227 0.079883 0.000000
0.801562 0.079883 0.000000
0.920117 0.079883 0.000000
1.000000 0.079883 0.000000
0.000000 0.198437 0.000000
0.079883 0.198437 0.000000
0.198437 0.198437 0.000000
0.342773 0.198437 0.000000
0.500000 0.198437 0.000000
0.657227 0.198437 0.000000
0.801562 0.198437 0.000000
0.920117 0.198437 0.000000
1.000000 0.198437 0.000000
0.000000 0.342773 0.000000
0.079883 0.342773 0.000000
0.198437 0.342773 0.000000
0.342773 0.342773 0.000000
0.500000 0.342773 0.000000
0.657227 0.342773 0.000000
0.801562 0.342773 0.000000
0.920117 0.342773 0.000000
1.000000 0.342773 0.000000
0.000000 0.500000 0.000000
0.079883 0.500000 0.000000
0.198437 0.500000 0.000000
0.342773 0.500000 0.000000
0.500000 0.500000 0.000000
0.657227 0.500000 0.000000
0.801562 0.500000 0.000000
0.920117 0.500000 0.000000
1.000000 0.500000 0.000000
0.000000 0.657227 0.000000
0.079883 0.657227 0.000000
0.198437 0.657227 0.000000
0.342773 0.657227 0.000000
0.500000 0.657227 0.000000
0.657227 0.657227 0.000000
0.801562 0.657227 0.000000
0.920117 0.657227 0.000000
1.000000 0.657227 0.000000
0.000000 0.801562 0.000000
0.079883 0.801562 0.000000
0.198437 0.801562 0.000000
0.342773 0.801562 0.000000
0.500000 0.801562 0.000000
0.657227 0.801562 0.000000
0.801562 0.801562 0.000000
0.920117 0.801562 0.000000
1.000000 0.801562 0.000000
0.000000 0.920117 0.000000
0.079883 0.920117 0.000000
0.198437 0.920117 0.000000
0.342773 0.920117 0.000000
0.500000 0.920117 0.000000
0.657227 0.920117 0.000000
0.801562 0.920117 0.000000
0.920117 0.920117 0.000000
1.000000 0.920117 0.000000
0.000000 1.000000 0.000000
0.079883 1.000000 0.000000
0.198437 1.000000 0.000000
0.342773 1.000000 0.000000
0.500000 1.000000 0.000000
0.657227 1.000000 0.000000
0.801562 1.000000 0.000000
0.920117 1.000000 0.000000
1.000000 1.000000 0.000000
0.000000 0.000000 0.079883
0.079883 0.000000 0.079883
0.198437 0.000000 0.079883
0.342773 0.000000 0.079883
0.500000 0.000000 0.079883
0.657227 0.000000 0.079883
0.801562 0.000000 0.079883
0.920117 0.000000 0.079883
1.000000 0.000000 0.079883
0.000000 0.079883 0.079883
0.079883 0.079883 0.079883
0.198437 0.079883 0.079883
0.342773 0.079883 0.079883
0.500000 0.079883 0.079883
0.657227 0.079883 0.079883
0.801562 0.079883 0.079883
0.920117 0.079883 0.079883
1.000000 0.079883 0.079883
0.000000 0.198437 0.079883
0.079883 0.198437 0.079883
0.198437 0.198437 0.079883
0.342773 0.198437 0.079883
0.500000 0.198437 0.079883
0.657227 0.198437 0.079883
0.801562 0.198437 0.079883
0.920117 0.198437 0.079883
1.000000 0.198437 0.079883
0.000000 0.342773 0.079883
0.079883 0.342773 0.079883
0.198437 0.342773 0.079883
0.342773 0.342773 0.079883
0.500000 0.342773 0.079883
0.657227 0.342773 0.079883
0.801562 0.342773 0.079883
0.920117 0.342773 0.079883
1.000000 0.342773 0.079883
0.000000 0.500000 0.079883
0.079883 0.500000 0.079883
0.198437 0.500000 0.079883
0.342773 0.500000 0.079883
0.500000 0.500000 0.079883
0.657227 0.500000 0.079883
0.801562 0.500000 0.079883
0.920117 0.500000 0.079883
1.000000 0.500000 0.079883
0.000000 0.657227 0.079883
0.079883 0.657227 0.079883
0.198437 0.657227 0.079883
0.342773 0.657227 0.079883
0.500000 0.657227 0.079883
0.657227 0.657227 0.079883
0.801562 0.657227 0.079883
0.920117 0.657227 0.079883
1.000000 0.657227 0.079883
0.000000 0.801562 0.079883
0.079883 0.801562 0.079883
0.198437 0.801562 0.079883
0.342773 0.801562 0.079883
0.500000 0.801562 0.079883
0.657227 0.801562 0.079883
0.801562 0.801562 0.079883
0.920117 0.801562 0.079883
1.000000 0.801562 0.079883
0.000000 0.920117 0.079883
0.079883 0.920117 0.079883
0.198437 0.920117 0.079883
0.342773 0.920117 0.079883
0.500000 0.920117 0.079883
0.657227 0.920117 0.079883
0.801562 0.920117 0.079883
0.920117 0.920117 0.079883
1.000000 0.920117 0.079883
0.000000 1.000000 0.079883
0.079883 1.000000 0.079883
0.198437 1.000000 0.079883
0.342773 1.000000 0.079883
0.500000 1.000000 0.079883
0.657227 1.000000 0.079883
0.801562 1.000000 0.079883
0.920117 1.000000 0.079883
1.000000 1.000000 0.079883
0.000000 0.000000 0.198437
0.079883 0.000000 0.198437
0.198437 0.000000 0.198437
0.342773 0.000000 0.198437
0.500000 0.000000 0.198437
0.657227 0.000000 0.198437
0.801562 0.000000 0.198437
0.920117 0.000000 0.198437
1.000000 0.000000 0.198437
0.000000 0.079883 0.198437
0.079883 0.079883 0.198437
0.198437 0.079883 0.198437
0.342773 0.079883 0.198437
0.500000 0.079883 0.198437
0.657227 0.079883 0.198437
0.801562 0.079883 0.198437
0.920117 0.079883 0.198437
1.000000 0.079883 0.198437
0.000000 0.198437 0.198437
0.079883 0.198437 0.198437
0.198437 0.198437 0.198437
0.342773 0.198437 0.198437
0.500000 0.198437 0.198437
0.657227 0.198437 0.198437
0.801562 0.198437 0.198437
0.920117 0.198437 0.198437
1.000000 0.198437 0.198437
0.000000 0.342773 0.198437
0.079883 0.342773 0.198437
0.198437 0.342773 0.198437
0.342773 0.342773 0.198437
0.500000 0.342773 0.198437
0.657227 0.342773 0.198437
0.801562 0.342773 0.198437
0.920117 0.342773 0.198437
1.000000 0.342773 0.198437
0.000000 0.500000 0.198437
0.079883 0.500000 0.198437
0.198437 0.500000 0.198437
0.342773 0.500000 0.198437
0.500000 0.500000 0.198437
0.657227 0.500000 0.198437
0.801562 0.500000 0.198437
0.920117 0.500000 0.198437
1.000000 0.500000 0.198437
0.000000 0.657227 0.198437
0.079883 0.657227 0.198437
0.198437 0.657227 0.198437
0.342773 0.657227 0.198437
0.500000 0.657227 0.198437
0.657227 0.657227 0.198437
0.801562 0.657227 0.198437
0.920117 0.657227 0.198437
1.000000 0.657227 0.198437
0.000000 0.801562 0.198437
0.079883 0.801562 0.198437
0.198437 0.801562 0.198437
0.342773 0.801562 0.198437
0.500000 0.801562 0.198437
0.657227 0.801562 0.198437
0.801562 0.801562 0.198437
0.920117 0.801562 0.198437
1.000000 0.801562 0.198437
0.000000 0.920117 0.198437
0.079883 0.920117 0.198437
0.198437 0.920117 0.198437
0.342773 0.920117 0.198437
0.500000 0.920117 0.198437
0.657227 0.920117 0.198437
0.801562 0.920117 0.198437
0.920117 0.920117 0.198437
1.000000 0.920117 0.198437
0.000000 1.000000 0.198437
0.079883 1.000000 0.198437
0.198437 1.000000 0.198437
0.342773 1.000000 0.198437
0.500000 1.000000 0.198437
0.657227 1.000000 0.198437
0.801562 1.000000 0.198437
0.920117 1.000000 0.198437
1.000000 1.000000 0.198437
0.000000 0.000000 0.342773
0.079883 0.000000 0.342773
0.198437 0.000000 0.342773
0.342773 0.000000 0.342773
0.500000 0.000000 0.342773
0.657227 0.000000 0.342773
0.801562 0.000000 0.342773
0.920117 0.000000 0.342773
1.000000 0.000000 0.342773
0.000000 0.079883 0.342773
0.079883 0.079883 0.342773
0.198437 0.079883 0.342773
0.342773 0.079883 0.342773
0.500000 0.079883 0.342773
0.657227 0.079883 0.342773
0.801562 0.079883 0.342773
0.920117 0.079883 0.342773
1.000000 0.079883 0.342773
0.000000 0.198437 0.342773
0.079883 0.198437 0.342773
0.198437 0.198437 0.342773
0.342773 0.198437 0.342773
0.500000 0.198437 0.342773
0.657227 0.198437 0.342773
0.801562 0.198437 0.342773
0.920117 0.198437 0.342773
1.000000 0.198437 0.342773
0.000000 0.342773 0.342773
0.079883 0.342773 0.342773
0.198437 0.342773 0.342773
0.342773 0.342773 0.342773
0.500000 0.342773 0.342773
0.657227 0.342773 0.342773
0.801562 0.342773 0.342773
0.920117 0.342773 0.342773
1.000000 0.342773 0.342773
0.000000 0.500000 0.342773
0.079883 0.500000 0.342773
0.198437 0.500000 0.342773
0.342773 0.500000 0.342773
0.500000 0.500000 0.342773
0.657227 0.500000 0.342773
0.801562 0.500000 0.342773
0.920117 0.500000 0.342773
1.000000 0.500000 0.342773
0.000000 0.657227 0.342773
0.079883 0.657227 0.342773
0.198437 0.657227 0.342773
0.342773 0.657227 0.342773
0.500000 0.657227 0.342773
0.657227 0.657227 0.342773
0.801562 0.657227 0.342773
0.920117 0.657227 0.342773
1.000000 0.657227 0.342773
0.000000 0.801562 0.342773
0.079883 0.801562 0.342773
0.198437 0.801562 0.342773
0.342773 0.801562 0.342773
0.500000 0.801562 0.342773
0.657227 0.801562 0.342773
0.801562 0.801562 0.342773
0.920117 0.801562 0.342773
1.000000 0.801562 0.342773
0.000000 0.920117 0.342773
0.079883 0.920117 0.342773
0.198437 0.920117 0.342773
0.342773 0.920117 0.342773
0.500000 0.920117 0.342773
0.657227 0.920117 0.342773
0.801562 0.920117 0.342773
0.920117 0.920117 0.342773
1.000000 0.920117 0.342773
0.000000 1.000000 0.342773
0.079883 1.000000 0.342773
0.198437 1.000000 0.342773
0.342773 1.000000 0.342773
0.500000 1.000000 0.342773
0.657227 1.000000 0.342773
0.801562 1.000000 0.342773
0.920117 1.000000 0.342773
1.000000 1.000000 0.342773
0.000000 0.000000 0.500000
0.079883 0.000000 0.500000
0.198437 0.000000 0.500000
0.342773 0.000000 0.500000
0.500000 0.000000 0.500000
0.657227 0.000000 0.500000
0.801562 0.000000 0.500000
0.920117 0.000000 0.500000
1.000000 0.000000 0.500000
0.000000 0.079883 0.500000
0.079883 0.079883 0.500000
0.198437 0.079883 0.500000
0.342773 0.079883 0.500000
0.500000 0.079883 0.500000
0.657227 0.079883 0.500000
0.801562 0.079883 0.500000
0.920117 0.079883 0.500000
1.000000 0.079883 0.500000
0.000000 0.198437 0.500000
0.079883 0.198437 0.500000
0.198437 0.198437 0.500000
0.342773 0.198437 0.500000
0.500000 0.198437 0.500000
0.657227 0.198437 0.500000
0.801562 0.198437 0.500000
0.920117 0.198437 0.500000
1.000000 0.198437 0.500000
0.000000 0.342773 0.500000
0.079883 0.342773 0.500000
0.198437 0.342773 0.500000
0.342773 0.342773 0.500000
0.500000 0.342773 0.500000
0.657227 0.342773 0.500000
0.801562 0.342773 0.500000
0.920117 0.342773 0.500000
1.000000 0.342773 0.500000
0.000000 0.500000 0.500000
0.079883 0.500000 0.500000
0.198437 0.500000 0.500000
0.342773 0.500000 0.500000
0.500000 0.500000 0.500000
0.657227 0.500000 0.500000
0.801562 0.500000 0.500000
0.920117 0.500000 0.500000
1.000000 0.500000 0.500000
0.000000 0.657227 0.500000
0.079883 0.657227 0.500000
0.198437 0.657227 0.500000
0.342773 0.657227 0.500000
0.500000 0.657227 0.500000
0.657227 0.657227 0.500000
0.801562 0.657227 0.500000
0.920117 0.657227 0.500000
1.000000 0.657227 0.500000
0.000000 0.801562 0.500000
0.079883 0.801562 0.500000
0.198437 0.801562 0.500000
0.342773 0.801562 0.500000
0.500000 0.801562 0.500000
0.657227 0.801562 0.500000
0.801562 0.801562 0.500000
0.920117 0.801562 0.500000
1.000000 0.801562 0.500000
0.000000 0.920117 0.500000
0.079883 0.920117 0.500000
0.198437 0.920117 0.500000
0.342773 0.920117 0.500000
0.500000 0.920117 0.500000
0.657227 0.920117 0.500000
0.801562 0.920117 0.500000
0.920117 0.920117 0.500000
1.000000 0.920117 0.500000
0.000000 1.000000 0.500000
0.079883 1.000000 0.500000
0.198437 1.000000 0.500000
0.342773 1.000000 0.500000
0.500000 1.000000 0.500000
0.657227 1.000000 0.500000
0.801562 1.000000 0.500000
0.920117 1.000000 0.500000
1.000000 1.000000 0.500000
0.000000 0.000000 0.657227
0.079883 0.000000 0.657227
0.198437 0.000000 0.657227
0.342773 0.000000 0.657227
0.500000 0.000000 0.657227
0.657227 0.000000 0.657227
0.801562 0.000000 0.657227
0.920117 0.000000 0.657227
1.000000 0.000000 0.657227
0.000000 0.079883 0.657227
0.079883 0.079883 0.657227
0.198437 0.079883 0.657227
0.342773 0.079883 0.657227
0.500000 0.079883 0.657227
0.657227 0.079883 0.657227
0.801562 0.079883 0.657227
0.920117 0.079883 0.657227
1.000000 0.079883 0.657227
0.000000 0.198437 0.657227
0.079883 0.198437 0.657227
0.198437 0.198437 0.657227
0.342773 0.198437 0.657227
0.500000 0.198437 0.657227
0.657227 0.198437 0.657227
0.801562 0.198437 0.657227
0.920117 0.198437 0.657227
1.000000 0.198437 0.657227
0.000000 0.342773 0.657227
0.079883 0.342773 0.657227
0.198437 0.342773 0.657227
0.342773 0.342773 0.657227
0.500000 0.342773 0.657227
0.657227 0.342773 0.657227
0.801562 0.342773 0.657227
0.920117 0.342773 0.657227
1.000000 0.342773 0.657227
0.000000 0.500000 0.657227
0.079883 0.500000 0.657227
0.198437 0.500000 0.657227
0.342773 0.500000 0.657227
0.500000 0.500000 0.657227
0.657227 0.500000 0.657227
0.801562 0.500000 0.657227
0.920117 0.500000 0.657227
1.000000 0.500000 0.657227
0.000000 0.657227 0.657227
0.079883 0.657227 0.657227
0.198437 0.657227 0.657227
0.342773 0.657227 0.657227
0.500000 0.657227 0.657227
0.657227 0.657227 0.657227
0.801562 0.657227 0.657227
0.920117 0.657227 0.657227
1.000000 0.657227 0.657227
0.000000 0.801562 0.657227
0.079883 0.801562 0.657227
0.198437 0.801562 0.657227
0.342773 0.801562 0.657227
0.500000 0.801562 0.657227
0.657227 0.801562 0.657227
0.801562 0.801562 0.657227
0.920117 0.801562 0.657227
1.000000 0.801562 0.657227
0.000000 0.920117 0.657227
0.079883 0.920117 0.657227
0.198437 0.920117 0.657227
0.342773 0.920117 0.657227
0.500000 0.920117 0.657227
0.657227 0.920117 0.657227
0.801562 0.920117 0.657227
0.920117 0.920117 0.657227
1.000000 0.920117 0.657227
0.000000 1.000000 0.657227
0.079883 1.000000 0.657227
0.198437 1.000000 0.657227
0.342773 1.000000 0.657227
0.500000 1.000000 0.657227
0.657227 1.000000 0.657227
0.801562 1.000000 0.657227
0.920117 1.000000 0.657227
1.000000 1.000000 0.657227
0.000000 0.000000 0.801562
0.079883 0.000000 0.801562
0.198437 0.000000 0.801562
0.342773 0.000000 0.801562
0.500000 0.000000 0.801562
0.657227 0.000000 0.801562
0.801562 0.000000 0.801562
0.920117 0.000000 0.801562
1.000000 0.000000 0.801562
0.000000 0.079883 0.801562
0.079883 0.079883 0.801562
0.198437 0.079883 0.801562
0.342773 0.079883 0.801562
0.500000 0.079883 0.801562
0.657227 0.079883 0.801562
0.801562 0.079883 0.801562
0.920117 0.079883 0.801562
1.000000 0.079883 0.801562
0.000000 0.198437 0.801562
0.079883 0.198437 0.801562
0.198437 0.198437 0.801562
0.342773 0.198437 0.801562
0.500000 0.198437 0.801562
0.657227 0.198437 0.801562
0.801562 0.198437 0.801562
0.920117 0.198437 0.801562
1.000000 0.198437 0.801562
0.000000 0.342773 0.801562
0.079883 0.342773 0.801562
0.198437 0.342773 0.801562
0.342773 0.342773 0.801562
0.500000 0.342773 0.801562
0.657227 0.342773 0.801562
0.801562 0.342773 0.801562
0.920117 0.342773 0.801562
1.000000 0.342773 0.801562
0.000000 0.500000 0.801562
0.079883 0.500000 0.801562
0.198437 0.500000 0.801562
0.342773 0.500000 0.801562
0.500000 0.500000 0.801562
0.657227 0.500000 0.801562
0.801562 0.500000 0.801562
0.920117 0.500000 0.801562
1.000000 0.500000 0.801562
0.000000 0.657227 0.801562
0.079883 0.657227 0.801562
0.198437 0.657227 0.801562
0.342773 0.657227 0.801562
0.500000 0.657227 0.801562
0.657227 0.657227 0.801562
0.801562 0.657227 0.801562
0.920117 0.657227 0.801562
1.000000 0.657227 0.801562
0.000000 0.801562 0.801562
0.079883 0.801562 0.801562
0.198437 0.801562 0.801562
0.342773 0.801562 0.801562
0.500000 0.801562 0.801562
0.657227 0.801562 0.801562
0.801562 0.801562 0.801562
0.920117 0.801562 0.801562
1.000000 0.801562 0.801562
0.000000 0.920117 0.801562
0.079883 0.920117 0.801562
0.198437 0.920117 0.801562
0.342773 0.920117 0.801562
0.500000 0.920117 0.801562
0.657227 0.920117 0.801562
0.801562 0.920117 0.801562
0.920117 0.920117 0.801562
1.000000 0.920117 0.801562
0.000000 1.000000 0.801562
0.079883 1.000000 0.801562
0.198437 1.000000 0.801562
0.342773 1.000000 0.801562
0.500000 1.000000 0.801562
0.657227 1.000000 0.801562
0.801562 1.000000 0.801562
0.920117 1.000000 0.801562
1.000000 1.000000 0.801562
0.000000 0.000000 0.920117
0.079883 0.000000 0.920117
0.198437 0.000000 0.920117
0.342773 0.000000 0.920117
0.500000 0.000000 0.920117
0.657227 0.000000 0.920117
0.801562 0.000000 0.920117
0.920117 0.000000 0.920117
1.000000 0.000000 0.920117
0.000000 0.079883 0.920117
0.079883 0.079883 0.920117
0.198437 0.079883 0.920117
0.342773 0.079883 0.920117
0.500000 0.079883 0.920117
0.657227 0.079883 0.920117
0.801562 0.079883 0.920117
0.920117 0.079883 0.920117
1.000000 0.079883 0.920117
0.000000 0.198437 0.920117
0.079883 0.198437 0.920117
0.198437 0.198437 0.920117
0.342773 0.198437 0.920117
0.500000 0.198437 0.920117
0.657227 0.198437 0.920117
0.801562 0.198437 0.920117
0.920117 0.198437 0.920117
1.000000 0.198437 0.920117
0.000000 0.342773 0.920117
0.079883 0.342773 0.920117
0.198437 0.342773 0.920117
0.342773 0.342773 0.920117
0.500000 0.342773 0.920117
0.657227 0.342773 0.920117
0.801562 0.342773 0.920117
0.920117 0.342773 0.920117
1.000000 0.342773 0.920117
0.000000 0.500000 0.920117
0.079883 0.500000 0.920117
0.198437 0.500000 0.920117
0.342773 0.500000 0.920117
0.500000 0.500000 0.920117
0.657227 0.500000 0.920117
0.801562 0.500000 0.920117
0.920117 0.500000 0.920117
1.000000 0.500000 0.920117
0.000000 0.657227 0.920117
0.079883 0.657227 0.920117
0.198437 0.657227 0.920117
0.342773 0.657227 0.920117
0.500000 0.657227 0.920117
0.657227 0.657227 0.920117
0.801562 0.657227 0.920117
0.920117 0.657227 0.920117
1.000000 0.657227 0.920117
0.000000 0.801562 0.920117
0.079883 0.801562 0.920117
0.198437 0.801562 0.920117
0.342773 0.801562 0.920117
0.500000 0.801562 0.920117
0.657227 0.801562 0.920117
0.801562 0.801562 0.920117
0.920117 0.801562 0.920117
1.000000 0.801562 0.920117
0.000000 0.920117 0.920117
0.079883 0.920117 0.920117
0.198437 0.920117 0.920117
0.342773 0.920117 0.920117
0.500000 0.920117 0.920117
0.657227 0.920117 0.920117
0.801562 0.920117 0.920117
0.920117 0.920117 0.920117
1.000000 0.920117 0.920117
0.000000 1.000000 0.920117
0.079883 1.000000 0.920117
0.198437 1.000000 0.920117
0.342773 1.000000 0.920117
0.500000 1.000000 0.920117
0.657227 1.000000 0.920117
0.801562 1.000000 0.920117
0.920117 1.000000 0.920117
1.000000 1.000000 0.920117
0.000000 0.000000 1.000000
0.079883 0.000000 1.000000
0.198437 0.000000 1.000000
0.342773 0.000000 1.000000
0.500000 0.000000 1.000000
0.657227 0.000000 1.000000
0.801562 0.000000 1.000000
0.920117 0.000000 1.000000
1.000000 0.000000 1.000000
0.000000 0.079883 1.000000
0.079883 0.079883 1.000000
0.198437 0.079883 1.000000
0.342773 0.079883 1.000000
0.500000 0.079883 1.000000
0.657227 0.079883 1.000000
0.801562 0.079883 1.000000
0.920117 0.079883 1.000000
1.000000 0.079883 1.000000
0.000000 0.198437 1.000000
0.079883 0.198437 1.000000
0.198437 0.198437 1.000000
0.342773 0.198437 1.000000
0.500000 0.198437 1.000000
0.657227 0.198437 1.000000
0.801562 0.198437 1.000000
0.920117 0.198437 1.000000
1.000000 0.198437 1.000000
0.000000 0.342773 1.000000
0.079883 0.342773 1.000000
0.198437 0.342773 1.000000
0.342773 0.342773 1.000000
0.500000 0.342773 1.000000
0.657227 0.342773 1.000000
0.801562 0.342773 1.000000
0.920117 0.342773 1.000000
1.000000 0.342773 1.000000
0.000000 0.500000 1.000000
0.079883 0.500000 1.000000
0.198437 0.500000 1.000000
0.342773 0.500000 1.000000
0.500000 0.500000 1.000000
0.657227 0.500000 1.000000
0.801562 0.500000 1.000000
0.920117 0.500000 1.000000
1.000000 0.500000 1.000000
0.000000 0.657227 1.000000
0.079883 0.657227 1.000000
0.198437 0.657227 1.000000
0.342773 0.657227 1.000000
0.500000 0.657227 1.000000
0.657227 0.657227 1.000000
0.801562 0.657227 1.000000
0.920117 0.657227 1.000000
1.000000 0.657227 1.000000
0.000000 0.801562 1.000000
0.079883 0.801562 1.000000
0.198437 0.801562 1.000000
0.342773 0.801562 1.000000
0.500000 0.801562 1.000000
0.657227 0.801562 1.000000
0.801562 0.801562 1.000000
0.920117 0.801562 1.000000
1.000000 0.801562 1.000000
0.000000 0.920117 1.000000
0.079883 0.920117 1.000000
0.198437 0.920117 1.000000
0.342773 0.920117 1.000000
0.500000 0.920117 1.000000
0.657227 0.920117 1.000000
0.801562 0.920117 1.000000
0.920117 0.920117 1.000000
1.000000 0.920117 1.000000
0.000000 1.000000 1.000000
0.079883 1.000000 1.000000
0.198437 1.000000 1.000000
0.342773 1.000000 1.000000
0.500000 1.000000 1.000000
0.657227 1.000000 1.000000
0.801562 1.000000 1.000000
0.920117 1.000000 1.000000
1.000000 1.000000 1.000000
