public/luts/classic/filmic-contrast.cube
TITLE "Filmic Contrast"
LUT_3D_SIZE 5
0.000000 0.000000 0.000000
0.198437 0.000000 0.000000
0.500000 0.000000 0.000000
0.801562 0.000000 0.000000
1.000000 0.000000 0.000000
0.000000 0.198437 0.000000
0.198437 0.198437 0.000000
0.500000 0.198437 0.000000
0.801562 0.198437 0.000000
1.000000 0.198437 0.000000
0.000000 0.500000 0.000000
0.198437 0.500000 0.000000
0.500000 0.500000 0.000000
0.801562 0.500000 0.000000
1.000000 0.500000 0.000000
0.000000 0.801562 0.000000
0.198437 0.801562 0.000000
0.500000 0.801562 0.000000
0.801562 0.801562 0.000000
1.000000 0.801562 0.000000
0.000000 1.000000 0.000000
0.198437 1.000000 0.000000
0.500000 1.000000 0.000000
0.801562 1.000000 0.000000
1.000000 1.000000 0.000000
0.000000 0.000000 0.198437
0.198437 0.000000 0.198437
0.500000 0.000000 0.198437
0.801562 0.000000 0.198437
1.000000 0.000000 0.198437
0.000000 0.198437 0.198437
0.198437 0.198437 0.198437
0.500000 0.198437 0.198437
0.801562 0.198437 0.198437
1.000000 0.198437 0.198437
0.000000 0.500000 0.198437
0.198437 0.500000 0.198437
0.500000 0.500000 0.198437
0.801562 0.500000 0.198437
1.000000 0.500000 0.198437
0.000000 0.801562 0.198437
0.198437 0.801562 0.198437
0.500000 0.801562 0.198437
0.801562 0.801562 0.198437
1.000000 0.801562 0.198437
0.000000 1.000000 0.198437
0.198437 1.000000 0.198437
0.500000 1.000000 0.198437
0.801562 1.000000 0.198437
1.000000 1.000000 0.198437
0.000000 0.000000 0.500000
0.198437 0.000000 0.500000
0.500000 0.000000 0.500000
0.801562 0.000000 0.500000
1.000000 0.000000 0.500000
0.000000 0.198437 0.500000
0.198437 0.198437 0.500000
0.500000 0.198437 0.500000
0.801562 0.198437 0.500000
1.000000 0.198437 0.500000
0.000000 0.500000 0.500000
0.198437 0.500000 0.500000
0.500000 0.500000 0.500000
0.801562 0.500000 0.500000
1.000000 0.500000 0.500000
0.000000 0.801562 0.500000
0.198437 0.801562 0.500000
0.500000 0.801562 0.500000
0.801562 0.801562 0.500000
1.000000 0.801562 0.500000
0.000000 1.000000 0.500000
0.198437 1.000000 0.500000
0.500000 1.000000 0.500000
0.801562 1.000000 0.500000
1.000000 1.000000 0.500000
0.000000 0.000000 0.801562
0.198437 0.000000 0.801562
0.500000 0.000000 0.801562
0.801562 0.000000 0.801562
1.000000 0.000000 0.801562
0.000000 0.198437 0.801562
0.198437 0.198437 0.801562
0.500000 0.198437 0.801562
0.801562 0.198437 0.801562
1.000000 0.198437 0.801562
0.000000 0.500000 0.801562
0.198437 0.500000 0.801562
0.500000 0.500000 0.801562
0.801562 0.500000 0.801562
1.000000 0.500000 0.801562
0.000000 0.801562 0.801562
0.198437 0.801562 0.801562
0.500000 0.801562 0.801562
0.801562 0.801562 0.801562
1.000000 0.801562 0.801562
0.000000 1.000000 0.801562
0.198437 1.000000 0.801562
0.500000 1.000000 0.801562
0.801562 1.000000 0.801562
1.000000 1.000000 0.801562
0.000000 0.000000 1.000000
0.198437 0.000000 1.000000
0.500000 0.000000 1.000000
0.801562 0.000000 1.000000
1.000000 0.000000 1.000000
0.000000 0.198437 1.000000
0.198437 0.198437 1.000000
0.500000 0.198437 1.000000
0.801562 0.198437 1.000000
1.000000 0.198437 1.000000
0.000000 0.500000 1.000000
0.198437 0.500000 1.000000
0.500000 0.500000 1.000000
0.801562 0.500000 1.000000
1.000000 0.500000 1.000000
0.000000 0.801562 1.000000
0.198437 0.801562 1.000000
0.500000 0.801562 1.000000
0.801562 0.801562 1.000000
1.000000 0.801562 1.000000
0.000000 1.000000 1.000000
0.198437 1.000000 1.000000
0.500000 1.000000 1.000000
0.801562 1.000000 1.000000
1.000000 1.000000 1.000000
