public/luts/classic/sepia.cube
TITLE "Sepia"
LUT_3D_SIZE 2

0.000000 0.000000 0.000000
0.393000 0.349000 0.272000
0.769000 0.686000 0.534000
1.000000 1.000000 0.806000
0.189000 0.168000 0.131000
0.582000 0.517000 0.403000
0.958000 0.854000 0.665000
1.000000 1.000000 0.937000
