public/luts/classic/warm.cube
TITLE "Warm"
LUT_3D_SIZE 2

0.030000 0.015000 0.000000
1.000000 0.015000 0.000000
0.030000 0.985000 0.000000
1.000000 0.985000 0.000000
0.030000 0.015000 0.860000
1.000000 0.015000 0.860000
0.030000 0.985000 0.860000
1.000000 0.985000 0.860000
