public/luts/apple/Apple-Log-2-Rec709-low-ISO.cube
TITLE "BaseLUT - Apple iPhone - Apple Log 2 to Rec709 - Low ISO"
# Developed for converting Apple Log / Apple Log 2 to Rec.709. For use when ISO value is 400 or lower. Version 1.2 - 09/27/2025 - Copyright 2025 Gamut, LLC.
LUT_3D_SIZE 33
0.0000000000 0.0000000000 0.0000000000
0.0000000000 0.0000000000 0.0000000000
0.0000000000 0.0000000000 0.0000000000
0.0000000000 0.0000000000 0.0000000000
0.0000000000 0.0000000000 0.0000000000
0.0000000000 0.0000000000 0.0000000000
0.0000000000 0.0000000000 0.0000000000
0.0000000000 0.0000000000 0.0000000000
0.0016765937 0.0000000000 0.0000000000
0.0136009564 0.0011687146 0.0011687146
0.0584780142 0.0068574206 0.0068574206
0.1358125729 0.0162183640 0.0162183640
0.2157722232 0.0265105053 0.0265105053
0.2934780563 0.0359106371 0.0359106371
0.3626737472 0.0449318756 0.0449318756
0.4255944242 0.0536451072 0.0530011304
0.4861020039 0.0620349703 0.0602950728
0.5468152738 0.0711718421 0.0680381821
0.6108248746 0.0824300373 0.0761602154
0.6831220122 0.0965485205 0.0850823174
0.7605948717 0.1141261280 0.0949630508
0.8331604264 0.1356905579 0.1043584634
0.9054434055 0.1628927133 0.1140281962
0.9637523685 0.1965509575 0.1222862015
0.9900282748 0.2381808742 0.1299523000
0.9946112540 0.2859797825 0.1367727288
0.9952408522 0.3352425880 0.1441157739
0.9958364852 0.3852898171 0.1559556247
0.9964294796 0.4385220278 0.1748876752
0.9968907554 0.4935405919 0.2027935943
0.9971756701 0.5514474714 0.2394792607
0.9973520312 0.6123219234 0.2827635732
0.9974050500 0.6818797503 0.3291263381
0.0000000000 0.0000000000 0.0000000000
0.0000000000 0.0000000000 0.0000000000
0.0000000000 0.0000000000 0.0000000000
0.0000000000 0.0000000000 0.0000000000
0.0000000000 0.0000000000 0.0000000000
0.0000000000 0.0000000000 0.0000000000
0.0000000000 0.0000000000 0.0000000000
0.0000000000 0.0000000000 0.0000000000
0.0023988641 0.0000000000 0.0000000000
0.0209427353 0.0019812180 0.0019812180
0.0735865911 0.0089356382 0.0089356382
0.1469783383 0.0177513968 0.0177513968
0.2243665699 0.0272817931 0.0272817931
0.3001768087 0.0374696376 0.0369997563
0.3656223222 0.0456517620 0.0452341978
0.4269857714 0.0539768690 0.0530011304
0.4867852011 0.0623137514 0.0605833002
0.5475158131 0.0716916585 0.0680381821
0.6112709743 0.0826248785 0.0763703812
0.6833652230 0.0969518388 0.0850823174
0.7608180470 0.1148027785 0.0949630508
0.8332601587 0.1362657082 0.1043584634
0.9055864445 0.1636146552 0.1140281962
0.9637523685 0.1969927041 0.1222862015
0.9900092105 0.2385346285 0.1299523000
0.9946112540 0.2864937854 0.1370533517
0.9952408522 0.3355395743 0.1441660949
0.9958364852 0.3854720104 0.1559556247
0.9964294796 0.4386085444 0.1748947782
0.9968907554 0.4937383940 0.2029801471
0.9971756701 0.5514508532 0.2391871367
0.9973520312 0.6124202710 0.2828865376
0.9974050500 0.6819688371 0.3291263381
0.0000000000 0.0000000000 0.0000000000
0.0000000000 0.0000000000 0.0000000000
0.0000000000 0.0000000000 0.0000000000
0.0000000000 0.0000000000 0.0000000000
0.0000000000 0.0000000000 0.0000000000
0.0000000000 0.0000000000 0.0000000000
0.0000000000 0.0000000000 0.0000000000
0.0000000000 0.0000000000 0.0000000000
0.0049841738 0.0000000000 0.0000000000
0.0291562839 0.0033787392 0.0033787392
0.0848912917 0.0099180563 0.0099180563
0.1581374490 0.0187337845 0.0187337845
0.2332824868 0.0288492919 0.0286003774
0.3058550653 0.0377664362 0.0377664362
0.3684495331 0.0463181700 0.0456517620
0.4283310916 0.0542431729 0.0530011304
0.4876347087 0.0626163357 0.0605833002
0.5481599537 0.0721753213 0.0683300687
0.6116698254 0.0832796451 0.0763703812
0.6836759819 0.0975730164 0.0855317345
0.7610562137 0.1152566701 0.0952232561
0.8334153872 0.1368383282 0.1043584634
0.9056853073 0.1643173845 0.1139232915
0.9638287786 0.1975224098 0.1222862015
0.9900819985 0.2391243233 0.1299523000
0.9946112540 0.2868843723 0.1370624202
0.9952408522 0.3357549175 0.1441157739
0.9958364852 0.3855765059 0.1557928242
0.9964294796 0.4387552845 0.1749018813
0.9968907554 0.4937976257 0.2027935943
0.9971756701 0.5515131013 0.2393190273
0.9973520312 0.6124249156 0.2828906364
0.9974050500 0.6820101274 0.3291263381
0.0000000000 0.0000000000 0.0000000000
0.0000000000 0.0000000000 0.0000000000
0.0000000000 0.0000000000 0.0000000000
0.0000000000 0.0000000000 0.0000000000
0.0000000000 0.0000000000 0.0000000000
0.0000000000 0.0000000000 0.0000000000
0.0000000000 0.0000000000 0.0000000000
0.0000000000 0.0000000000 0.0000000000
0.0068241028 0.0000000000 0.0000000000
0.0381317347 0.0041158114 0.0041158114
0.0985816872 0.0119537661 0.0119537661
0.1695005392 0.0202427866 0.0202427866
0.2422074054 0.0296206428 0.0296206428
0.3112194750 0.0385268393 0.0385268393
0.3705256421 0.0463641789 0.0459738247
0.4296336140 0.0546132461 0.0533112188
0.4883973569 0.0631287707 0.0608276493
0.5485338689 0.0726728389 0.0683300687
0.6120510487 0.0839574612 0.0763703812
0.6839624384 0.0981146625 0.0855317345
0.7612691335 0.1158062211 0.0951120434
0.8335617375 0.1374065266 0.1043584634
0.9057629292 0.1648072111 0.1140281962
0.9639296336 0.1981625545 0.1222862015
0.9900886909 0.2394866875 0.1299523000
0.9946112540 0.2872703211 0.1370624202
0.9952408522 0.3360738438 0.1441157739
0.9958364852 0.3858289062 0.1559556247
0.9964294796 0.4389028386 0.1750601502
0.9968907554 0.4939278545 0.2027919987
0.9971756701 0.5516752536 0.2394550161
0.9973520312 0.6124685564 0.2826355474
0.9974050500 0.6820936150 0.3291263381
0.0000000000 0.0000000000 0.0000000000
0.0000000000 0.0000000000 0.0000000000
0.0000000000 0.0000000000 0.0000000000
0.0000000000 0.0000000000 0.0000000000
0.0000000000 0.0000000000 0.0000000000
0.0000000000 0.0000000000 0.0000000000
0.0000000000 0.0000000000 0.0000000000
0.0011645473 0.0000000000 0.0000000000
0.0135223888 0.0014227830 0.0014227830
0.0540999348 0.0063011863 0.0063011863
0.1147458537 0.0137025183 0.0137025183
0.1822679586 0.0220575230 0.0220575230
0.2505463662 0.0306899971 0.0306899971
0.3150001753 0.0392801496 0.0386011252
0.3725083519 0.0470691265 0.0459738247
0.4306143859 0.0548365160 0.0536451072
0.4891306230 0.0634025246 0.0608840375
0.5491423926 0.0729544986 0.0683300687
0.6124380014 0.0843972770 0.0763703812
0.6842707671 0.0988953722 0.0855317345
0.7615405130 0.1165946558 0.0953722487
0.8336527154 0.1379708195 0.1043584634
0.9059247618 0.1653502320 0.1140281962
0.9639327403 0.1987479473 0.1222862015
0.9900687978 0.2399248807 0.1299523000
0.9946112540 0.2876390956 0.1368092146
0.9952408522 0.3363732333 0.1441157739
0.9958364852 0.3859170410 0.1557387969
0.9964294796 0.4390659180 0.1749160873
0.9968907554 0.4940075356 0.2028102066
0.9971756701 0.5516875104 0.2392173564
0.9973520312 0.6124747284 0.2826392736
0.9974050500 0.6821405045 0.3291263381
0.0000000000 0.0000000000 0.0000000000
0.0000000000 0.0000000000 0.0000000000
0.0000000000 0.0000000000 0.0000000000
0.0000000000 0.0000000000 0.0000000000
0.0000000000 0.0000000000 0.0000000000
0.0000000000 0.0000000000 0.0000000000
0.0000000000 0.0000000000 0.0000000000
0.0059624526 0.0000000000 0.0000000000
0.0335679796 0.0040141518 0.0034040010
0.0751491697 0.0092949579 0.0092949579
0.1318645804 0.0159784327 0.0159784327
0.1931267058 0.0236248324 0.0236248324
0.2556764929 0.0315859630 0.0314615058
0.3178971307 0.0400284384 0.0393791975
0.3738304616 0.0472719299 0.0463641789
0.4318273625 0.0552441501 0.0536451072
0.4897428448 0.0637528010 0.0608840375
0.5496328521 0.0734643696 0.0683300687
0.6129180407 0.0850987054 0.0763703812
0.6846119974 0.0992773298 0.0855317345
0.7616461418 0.1172582011 0.0953722487
0.8338486225 0.1388316030 0.1045506784
0.9059241029 0.1660610344 0.1139232915
0.9639832619 0.1994436797 0.1222862015
0.9901002952 0.2404958531 0.1298778290
0.9946112540 0.2879936419 0.1367727288
0.9952408522 0.3366556137 0.1441157739
0.9958364852 0.3861743620 0.1559556247
0.9964294796 0.4391523094 0.1748967809
0.9968907554 0.4941901930 0.2029558699
0.9971756701 0.5517453549 0.2393281621
0.9973520312 0.6125269726 0.2827672994
0.9974050500 0.6821831710 0.3291263381
0.0000000000 0.0000000000 0.0000000000
0.0000000000 0.0000000000 0.0000000000
0.0000000000 0.0000000000 0.0000000000
0.0000000000 0.0000000000 0.0000000000
0.0000000000 0.0000000000 0.0000000000
0.0000000000 0.0000000000 0.0000000000
0.0030274390 0.0046244638 0.0000000000
0.0200214974 0.0108761714 0.0020828453
0.0489318747 0.0147571466 0.0057419136
0.0912788628 0.0165536542 0.0109237141
0.1427059636 0.0197874407 0.0169608812
0.1995177472 0.0258391933 0.0245456583
0.2598574856 0.0330286575 0.0317351224
0.3198267072 0.0407714548 0.0393791975
0.3755978013 0.0483263070 0.0466827266
0.4329738381 0.0560499109 0.0536451072
0.4905050535 0.0647711044 0.0608840375
0.5502196220 0.0743783095 0.0683300687
0.6133432417 0.0859092824 0.0763703812
0.6849006038 0.1002023096 0.0855317345
0.7619631537 0.1179178864 0.0953722487
0.8341044184 0.1396244712 0.1046107456
0.9061327157 0.1668373598 0.1140281962
0.9640223299 0.2001744625 0.1222862015
0.9901389763 0.2410910582 0.1299523000
0.9946112540 0.2885284230 0.1368274574
0.9952408522 0.3369697026 0.1441157739
0.9958364852 0.3864135671 0.1559556247
0.9964294796 0.4393707294 0.1750439416
0.9968907554 0.4942551590 0.2028102066
0.9971756701 0.5519054436 0.2393190273
0.9973520312 0.6126667478 0.2827672994
0.9974050500 0.6822624358 0.3291263381
0.0000000000 0.0000000000 0.0000000000
0.0000000000 0.0000000000 0.0000000000
0.0000000000 0.0000000000 0.0000000000
0.0000000000 0.0000000000 0.0000000000
0.0000000000 0.0026168562 0.0000000000
0.0008148139 0.0080907810 0.0008888366
0.0037730446 0.0216345577 0.0021082683
0.0245257066 0.0313619400 0.0035311480
0.0544510244 0.0370154483 0.0067077924
0.0953339998 0.0389288684 0.0112829731
0.1449442609 0.0365283371 0.0171045119
0.2018564324 0.0340981064 0.0245456583
0.2618026248 0.0370492802 0.0323814798
0.3213959962 0.0429856906 0.0395275811
0.3771491750 0.0498235955 0.0466827266
0.4342626590 0.0575824325 0.0538089865
0.4916174935 0.0658662184 0.0611697629
0.5510220348 0.0757450515 0.0685758876
0.6140539037 0.0871274623 0.0763703812
0.6854923979 0.1015051501 0.0855317345
0.7623584464 0.1192815224 0.0953722487
0.8343180819 0.1410530797 0.1047373439
0.9062812139 0.1679611384 0.1140281962
0.9641403184 0.2011785944 0.1222862015
0.9901408182 0.2419917209 0.1298778290
0.9946112540 0.2893140472 0.1369369147
0.9952408522 0.3373906205 0.1441764533
0.9958364852 0.3867386503 0.1560774818
0.9964294796 0.4396610170 0.1750368386
0.9968907554 0.4944521726 0.2028526917
0.9971756701 0.5520072812 0.2392929057
0.9973520312 0.6127540916 0.2827672994
0.9974050500 0.6823135481 0.3291263381
0.0000000000 0.0048783711 0.0000000000
0.0000000000 0.0048783711 0.0000000000
0.0000000000 0.0048783711 0.0000000000
0.0000000000 0.0079899349 0.0000000000
0.0012110701 0.0148046590 0.0013210912
0.0024920574 0.0267096369 0.0027184513
0.0047517074 0.0458853845 0.0051325361
0.0196547489 0.0579284868 0.0067332154
0.0518386507 0.0629059832 0.0074567041
0.0932858213 0.0658796666 0.0112590346
0.1435713836 0.0644245184 0.0171045119
0.2011987046 0.0588873684 0.0245456583
0.2620047314 0.0516272339 0.0323814798
0.3221434964 0.0509332801 0.0397006953
0.3783092631 0.0546186566 0.0466827266
0.4358584944 0.0609738896 0.0542841427
0.4930813888 0.0688308075 0.0613188806
0.5518979708 0.0780398234 0.0687298529
0.6149473389 0.0891619417 0.0766524163
0.6862272022 0.1035770906 0.0855317345
0.7627859796 0.1212648193 0.0953722487
0.8346754043 0.1428001686 0.1047373439
0.9065599813 0.1698076099 0.1140281962
0.9642215611 0.2027974652 0.1222862015
0.9901888933 0.2432271335 0.1301057400
0.9946112540 0.2903519562 0.1369078010
0.9952855868 0.3381034689 0.1441851217
0.9958364852 0.3872884585 0.1559556247
0.9964294796 0.4400634257 0.1750297356
0.9968907554 0.4946993304 0.2028102066
0.9971756701 0.5522333127 0.2393593203
0.9973520312 0.6129031872 0.2826392736
0.9974050500 0.6824453015 0.3291263381
0.0018162212 0.0185417605 0.0019812180
0.0018162212 0.0185417605 0.0019812180
0.0018162212 0.0185417605 0.0019812180
0.0024920869 0.0271578091 0.0027184836
0.0039594017 0.0402648542 0.0043190984
0.0059627480 0.0556675780 0.0065044411
0.0082538734 0.0744596549 0.0089112137
0.0118972294 0.0916915634 0.0111154040
0.0393707428 0.0972501366 0.0118582249
0.0850316525 0.0997158320 0.0120499755
0.1374308723 0.1002513796 0.0165532593
0.1960697704 0.0954504667 0.0239731550
0.2589295485 0.0860915825 0.0315859630
0.3211626908 0.0738605885 0.0396017729
0.3785793618 0.0692040082 0.0466827266
0.4366768546 0.0703142905 0.0542841427
0.4942570921 0.0749679951 0.0614679983
0.5531685502 0.0828926836 0.0688667108
0.6161197817 0.0934263384 0.0768617064
0.6871322166 0.1071766772 0.0858512054
0.7635400276 0.1245007425 0.0953722487
0.8352315108 0.1458432727 0.1047373439
0.9068635037 0.1724799089 0.1140281962
0.9643538902 0.2051382548 0.1222862015
0.9901872355 0.2453022091 0.1300961500
0.9946112540 0.2918623496 0.1369807725
0.9953054689 0.3392291831 0.1442351611
0.9958364852 0.3880439041 0.1559556247
0.9964294796 0.4406728160 0.1750865597
0.9968907554 0.4951229882 0.2027935943
0.9971756701 0.5525230669 0.2393190273
0.9973520312 0.6131380368 0.2827710256
0.9974050500 0.6826844096 0.3291263381
0.0052636061 0.0490357658 0.0057417848
0.0052636061 0.0490357658 0.0057417848
0.0052636061 0.0490357658 0.0057417848
0.0066146877 0.0607656316 0.0072064841
0.0088046109 0.0758206752 0.0093428045
0.0107176188 0.0913169241 0.0110914048
0.0132077196 0.1083013983 0.0133675015
0.0156975878 0.1247200006 0.0156433856
0.0210489708 0.1384121916 0.0171045119
0.0652270892 0.1409444891 0.0173442001
0.1241770642 0.1415038404 0.0178708460
0.1857282426 0.1393982772 0.0224308947
0.2511528426 0.1312569777 0.0310383512
0.3172018805 0.1180384801 0.0393791975
0.3766429439 0.1018865760 0.0466827266
0.4364012251 0.0932237098 0.0542841427
0.4951189523 0.0905712107 0.0614679983
0.5544819714 0.0933950950 0.0691106533
0.6176030585 0.1011884001 0.0768617064
0.6884197443 0.1135321248 0.0859795566
0.7644895265 0.1299602344 0.0956312030
0.8359354833 0.1505458108 0.1047373439
0.9073195716 0.1766606167 0.1142678893
0.9645969277 0.2086132028 0.1222862015
0.9902625715 0.2482426202 0.1301079891
0.9946112540 0.2939661460 0.1370624202
0.9953054689 0.3407602913 0.1441660949
0.9958364852 0.3892861085 0.1558570695
0.9964294796 0.4415360158 0.1749851148
0.9968907554 0.4957383187 0.2027935943
0.9971756701 0.5529656557 0.2393190273
0.9973520312 0.6134687714 0.2827260007
0.9974050500 0.6829627434 0.3291263381
0.0113206018 0.0929098684 0.0116425662
0.0113206018 0.0929098684 0.0116425662
0.0110848990 0.0930480712 0.0114271202
0.0128408050 0.1047932805 0.0130321202
0.0145704220 0.1195796135 0.0146130906
0.0163785069 0.1327079420 0.0162657852
0.0187114393 0.1475540604 0.0183982209
0.0204647007 0.1615419823 0.0200030386
0.0227079126 0.1765776210 0.0222317631
0.0331337823 0.1891189014 0.0237989148
0.0958015249 0.1893329318 0.0239980464
0.1674146696 0.1876881549 0.0240229379
0.2377969601 0.1831402049 0.0294711995
0.3076553062 0.1719914278 0.0380882792
0.3711323605 0.1550939750 0.0459738247
0.4334798538 0.1353859269 0.0538704413
0.4941023670 0.1231413986 0.0614679983
0.5548787830 0.1169448257 0.0691106533
0.6187991114 0.1180294838 0.0773504670
0.6899448745 0.1257128939 0.0860928960
0.7656318733 0.1393085882 0.0957798203
0.8368738453 0.1583861775 0.1049860377
0.9079780087 0.1830260202 0.1142678893
0.9648983004 0.2140316509 0.1223753229
0.9902948978 0.2525765372 0.1301079891
0.9946460476 0.2971490535 0.1370624202
0.9953054689 0.3430277758 0.1442111272
0.9958364852 0.3909120710 0.1559556247
0.9964294796 0.4427827693 0.1750865597
0.9968907554 0.4966051621 0.2028769690
0.9971756701 0.5535992879 0.2393281621
0.9973520312 0.6139319869 0.2827255971
0.9974050500 0.6833535618 0.3291994330
0.0179248328 0.1442540314 0.0176792169
0.0179248328 0.1442540314 0.0176792169
0.0184492814 0.1444148833 0.0181585934
0.0195241021 0.1548981989 0.0191410419
0.0216408644 0.1686579225 0.0211350977
0.0226837188 0.1794824357 0.0222069348
0.0243561655 0.1911657044 0.0239232459
0.0258590404 0.2032070831 0.0254655377
0.0280411863 0.2159257435 0.0277049162
0.0297137252 0.2312922301 0.0293466476
0.0503097569 0.2423402694 0.0310881341
0.1315740093 0.2407700839 0.0307894367
0.2152769929 0.2376061761 0.0307894367
0.2921794328 0.2307506251 0.0369997563
0.3612406379 0.2172471076 0.0452109422
0.4271670579 0.1968596389 0.0532492011
0.4906045007 0.1744806442 0.0611697629
0.5535097831 0.1591567767 0.0691106533
0.6189968691 0.1500741144 0.0773504670
0.6909775387 0.1491444908 0.0864243763
0.7668889440 0.1564478992 0.0958829016
0.8380452046 0.1715394006 0.1051106781
0.9088443370 0.1934069730 0.1143727940
0.9652967941 0.2222391070 0.1224873417
0.9904261371 0.2590619196 0.1302569309
0.9946733854 0.3019277279 0.1370624202
0.9953054689 0.3462204740 0.1443914753
0.9958364852 0.3933219485 0.1559935907
0.9964294796 0.4443617832 0.1749729114
0.9968907554 0.4978896897 0.2027632478
0.9971756701 0.5544818078 0.2392585879
0.9973520312 0.6147015294 0.2827672994
0.9974050500 0.6838878325 0.3291263381
0.0254954262 0.2005917584 0.0250923868
0.0254954262 0.2005917584 0.0250923868
0.0254954262 0.2005917584 0.0250923868
0.0269741073 0.2091100876 0.0266098502
0.0285015141 0.2214975974 0.0281773174
0.0295683472 0.2306163118 0.0297450685
0.0310954466 0.2397069425 0.0308392827
0.0324770143 0.2496076726 0.0322570857
0.0338347263 0.2599663680 0.0336504074
0.0356828511 0.2729028122 0.0355396823
0.0380580955 0.2886763778 0.0376428773
0.0724756833 0.2981617031 0.0390572917
0.1726160342 0.2950056745 0.0386011252
0.2664380189 0.2906480226 0.0386011252
0.3454873593 0.2822815069 0.0445341775
0.4159151594 0.2665693281 0.0523516179
0.4839017662 0.2431483139 0.0608276493
0.5494461893 0.2178412783 0.0687982818
0.6167276929 0.2004075177 0.0772725931
0.6906333484 0.1891857140 0.0864243763
0.7675882959 0.1863282023 0.0961853903
0.8391192137 0.1935455126 0.1054827316
0.9097681130 0.2100062906 0.1146118023
0.9658221253 0.2351072600 0.1226095439
0.9905592798 0.2687735214 0.1302879501
0.9946907822 0.3090831283 0.1373495378
0.9953054689 0.3509442758 0.1442787851
0.9958364852 0.3969363125 0.1559556247
0.9964294796 0.4467903536 0.1749942205
0.9968907554 0.4997780677 0.2026964854
0.9971756701 0.5558699516 0.2392626860
0.9973520312 0.6158054536 0.2828243102
0.9974050500 0.6845752212 0.3291263381
0.0339075844 0.2604403858 0.0337251764
0.0339075844 0.2605940351 0.0337251764
0.0339075844 0.2607118517 0.0337251764
0.0346107811 0.2674363758 0.0344466819
0.0361477626 0.2772969864 0.0360094653
0.0376906139 0.2855985661 0.0375684972
0.0384434045 0.2924610918 0.0383291828
0.0393611768 0.2995514395 0.0392565802
0.0406922106 0.3078862641 0.0406015732
0.0421755853 0.3179245650 0.0421005047
0.0439542000 0.3298782334 0.0438977726
0.0476078654 0.3442920005 0.0464324392
0.0992156562 0.3520464533 0.0474527018
0.2180572752 0.3484245468 0.0470463731
0.3192065940 0.3429038722 0.0463641789
0.3984005220 0.3338683864 0.0520573858
0.4716975426 0.3173547365 0.0602572305
0.5418345999 0.2926681635 0.0685758876
0.6117698060 0.2657022333 0.0768617064
0.6877420817 0.2463615263 0.0863535392
0.7668530027 0.2333618759 0.0961853903
0.8395661838 0.2297037015 0.1054827316
0.9105754248 0.2370520789 0.1148027474
0.9662792052 0.2551045591 0.1227897548
0.9907401905 0.2837367984 0.1305613120
0.9947322031 0.3193081293 0.1372234483
0.9953154099 0.3579994731 0.1441157739
0.9958364852 0.4021440429 0.1559556247
0.9964294796 0.4506804597 0.1751600306
0.9968907554 0.5026457058 0.2028951769
0.9971756701 0.5577567464 0.2393281621
0.9973520312 0.6174418262 0.2827710256
0.9974050500 0.6855858625 0.3292377207
0.0426592870 0.3204580931 0.0425892792
0.0426592870 0.3204580931 0.0425892792
0.0426592870 0.3206786794 0.0425892792
0.0433234994 0.3250930896 0.0432604576
0.0443783940 0.3321802832 0.0443264154
0.0454417054 0.3388357917 0.0454008782
0.0462631038 0.3441479900 0.0462308911
0.0469620084 0.3488601229 0.0469371254
0.0481643987 0.3547136119 0.0481521258
0.0495058253 0.3625616669 0.0495051540
0.0508217859 0.3721936197 0.0508217859
0.0531885908 0.3844398742 0.0531885908
0.0585914474 0.3988535378 0.0556883131
0.1310433699 0.4059867304 0.0568110114
0.2667287866 0.4013497777 0.0561715694
0.3703163878 0.3950132527 0.0555679369
0.4533592026 0.3848514625 0.0609064614
0.5292307452 0.3675929959 0.0686101021
0.6033743279 0.3423479371 0.0769084308
0.6822736410 0.3160126170 0.0862118649
0.7639520678 0.2961300593 0.0961853903
0.8386978881 0.2825539118 0.1056771010
0.9107697305 0.2783350207 0.1150586899
0.9666799582 0.2859569672 0.1230207270
0.9909148693 0.3059126289 0.1308649434
0.9947852219 0.3341791672 0.1374399123
0.9953584877 0.3686978778 0.1444864842
0.9958364852 0.4098439572 0.1562452973
0.9964294796 0.4562427197 0.1750865597
0.9968907554 0.5067272585 0.2030027349
0.9971756701 0.5605336905 0.2393190273
0.9973520312 0.6197990195 0.2826392736
0.9974050500 0.6873183010 0.3290149556
0.0515531755 0.3761740403 0.0515531755
0.0515531755 0.3761740403 0.0515531755
0.0515531755 0.3764887178 0.0515531755
0.0522101938 0.3799401729 0.0522101938
0.0531106543 0.3850901974 0.0531106543
0.0541467218 0.3903674377 0.0541467218
0.0549846954 0.3951650108 0.0549846954
0.0558952263 0.3992307178 0.0558952263
0.0566567021 0.4035159499 0.0564968260
0.0577059050 0.4095699876 0.0577059050
0.0593019768 0.4176011596 0.0590122482
0.0610390973 0.4275337610 0.0610390973
0.0636604781 0.4401306608 0.0633857614
0.0733485595 0.4547145975 0.0666126824
0.1677575865 0.4610277199 0.0678444668
0.3170913703 0.4561418413 0.0667729338
0.4236431018 0.4488840564 0.0662412644
0.5096479978 0.4380365456 0.0707323703
0.5891728964 0.4194420478 0.0783097864
0.6723077855 0.3930719096 0.0868586565
0.7577534314 0.3658874309 0.0963842972
0.8355162613 0.3461945326 0.1060349286
0.9095957698 0.3326966075 0.1154649230
0.9667610126 0.3283531980 0.1234129175
0.9910838380 0.3366086751 0.1313175165
0.9948738627 0.3559803460 0.1380041270
0.9953849971 0.3844778925 0.1448026802
0.9958936461 0.4212627153 0.1564214540
0.9964361070 0.4644736864 0.1751721714
0.9968907554 0.5124532765 0.2029056261
0.9971756701 0.5649292184 0.2393281621
0.9973520312 0.6232337967 0.2827053514
0.9974050500 0.6897799502 0.3290706468
0.0624171724 0.4329455565 0.0624171724
0.0624171724 0.4330276909 0.0624171724
0.0624171724 0.4333225172 0.0624171724
0.0629342717 0.4360602170 0.0629342717
0.0638148186 0.4401043990 0.0638148186
0.0648501981 0.4439476918 0.0645968732
0.0654984283 0.4479642001 0.0654984283
0.0664783264 0.4519028576 0.0662296927
0.0673955814 0.4554712324 0.0670086511
0.0680769002 0.4598024201 0.0680769002
0.0699031536 0.4661241233 0.0691327332
0.0717925506 0.4741402057 0.0710381116
0.0741168219 0.4842960595 0.0733815856
0.0773955651 0.4971553780 0.0765607502
0.0927610948 0.5117917432 0.0801111452
0.2089816028 0.5178007778 0.0815676381
0.3675622722 0.5122062881 0.0802040623
0.4780007932 0.5044496621 0.0792828980
0.5678072040 0.4927001431 0.0827556379
0.6560584898 0.4732781247 0.0899006504
0.7473278402 0.4456148222 0.0983789648
0.8296503080 0.4175445983 0.1069742143
0.9065398072 0.3972326526 0.1162904946
0.9661087495 0.3835054949 0.1242794227
0.9911478766 0.3799383551 0.1323504879
0.9949840424 0.3884512611 0.1389242650
0.9954363590 0.4081026702 0.1455460723
0.9959102145 0.4383431725 0.1568696931
0.9964543322 0.4765616084 0.1754435567
0.9968907554 0.5212507685 0.2031953570
0.9971756701 0.5713987386 0.2394701259
0.9973520312 0.6282348720 0.2827544751
0.9974050500 0.6933151771 0.3291785487
0.0758507726 0.4904556262 0.0751403237
0.0758507726 0.4904835146 0.0751403237
0.0758507726 0.4907740393 0.0751403237
0.0763467376 0.4927478584 0.0756405343
0.0772642115 0.4958700928 0.0765696009
0.0782208100 0.4989793884 0.0773283871
0.0789814414 0.5021150104 0.0780028568
0.0798277028 0.5051656144 0.0789511987
0.0807595943 0.5084394180 0.0798908464
0.0816816656 0.5122653519 0.0805473018
0.0832483705 0.5168686558 0.0819377114
0.0849949360 0.5234001127 0.0836041199
0.0876355820 0.5316980863 0.0856629005
0.0910370157 0.5423176435 0.0885262276
0.0956398348 0.5556248158 0.0923086440
