public/luts/apple/Apple-Log-2-Rec709-low-ISO.cube
TITLE "BaseLUT - Apple iPhone - Apple Log 2 to Rec709 - Low ISO"
# Developed for converting Apple Log / Apple Log 2 to Rec.709. For use when ISO value is 400 or lower. Version 1.2 - 09/27/2025 - Copyright 2025 Gamut, LLC.
LUT_3D_SIZE 5
0.0000000000 0.0000000000 0.0000000000
0.0016765937 0.0000000000 0.0000000000
0.4861020039 0.0620349703 0.0602950728
0.9900282748 0.2381808742 0.1299523000
0.9974050500 0.6818797503 0.3291263381
0.0000000000 0.0048783711 0.0000000000
0.0518386507 0.0629059832 0.0074567041
0.4930813888 0.0688308075 0.0613188806
0.9901888933 0.2432271335 0.1301057400
0.9974050500 0.6824453015 0.3291263381
0.0515531755 0.3761740403 0.0515531755
0.0566567021 0.4035159499 0.0564968260
0.4236431018 0.4488840564 0.0662412644
0.9910838380 0.3366086751 0.1313175165
0.9974050500 0.6897799502 0.3290706468
0.3416443715 0.9003477577 0.2435752188
0.3456021604 0.9039652409 0.2459543554
0.3715773082 0.9265258753 0.2602946769
0.9435629691 0.9677817462 0.2905110761
0.9974050500 0.8493060877 0.3400268719
0.9959764880 0.9981005199 0.6344841746
0.9959764880 0.9981005199 0.6345330555
0.9962410911 0.9981005199 0.6367581318
0.9978182103 0.9981542703 0.6591571193
0.9984681868 0.9983996968 0.7179631564
0.0000000000 0.0000000000 0.0000000000
0.0410341623 0.0044716039 0.0310883865
0.5138600479 0.0655782412 0.0664111484
0.9909102030 0.2385027252 0.1328191798
0.9974050500 0.6819247942 0.3304054658
0.0039127608 0.0362568341 0.0324810456
0.0891166391 0.0891166391 0.0891166391
0.5219214403 0.0718501898 0.0668204714
0.9910442973 0.2436994912 0.1328191798
0.9974050500 0.6824453015 0.3304330583
0.0554112195 0.3963431330 0.0583302726
0.0605652860 0.4240583537 0.0650002852
0.4406329887 0.4625026727 0.0694868251
0.9917975343 0.3366136686 0.1336381098
0.9974050500 0.6897359073 0.3304054658
0.3448183419 0.9032217413 0.2472702014
0.3487846283 0.9067090310 0.2495306868
0.3754786217 0.9296482707 0.2647176592
0.9454684822 0.9689361394 0.2919031104
0.9974050500 0.8492729746 0.3410950616
0.9959764880 0.9981005199 0.6345330555
0.9959764880 0.9981005199 0.6345330555
0.9962410911 0.9981005199 0.6370713683
0.9978182103 0.9981542703 0.6596064603
0.9984681868 0.9983996968 0.7184990727
0.0499170813 0.0584686318 0.4004826434
0.0546481174 0.0655447148 0.4318381439
0.4558907801 0.0715689679 0.4211182362
0.9958169407 0.2445414669 0.2767211767
0.9974580688 0.6818136859 0.3584166483
0.0505864127 0.0622951903 0.4064760022
0.0543271141 0.0696039175 0.4373404813
0.4625663100 0.0737344265 0.4292238729
0.9958832142 0.2493992110 0.2761545468
0.9974580688 0.6823564649 0.3584661381
0.0541467218 0.3834680408 0.3736164400
0.0571135626 0.3989629571 0.3902135380
0.4415238729 0.4415242654 0.4415263839
0.9962477184 0.3378655302 0.2631748398
0.9974580688 0.6890802683 0.3582176894
0.3634050032 0.9179882259 0.3072527741
0.3670136069 0.9211191047 0.3098380431
0.3932586838 0.9419322003 0.3275429336
0.9567722894 0.9757235599 0.3041224620
0.9974580688 0.8490722887 0.3625580431
0.9962150726 0.9981005199 0.6389253492
0.9962410911 0.9981005199 0.6390934395
0.9964791847 0.9981005199 0.6414651583
0.9979123444 0.9981679615 0.6644586468
0.9984681868 0.9983996968 0.7196515913
0.1196765206 0.2924809052 0.9293223672
0.1205029267 0.2950659959 0.9331554934
0.1996500446 0.3142180741 0.9570360707
0.9642977829 0.3300495093 0.9472475140
0.9983283237 0.6802786898 0.7607432633
0.1198443757 0.2934902632 0.9295364086
0.1205899889 0.2963211813 0.9333916683
0.1954132028 0.3152939830 0.9573009186
0.9645812063 0.3304622192 0.9477855098
0.9983283237 0.6807674162 0.7606954308
0.1216568795 0.3248465685 0.9329600643
0.1225562110 0.3277677455 0.9365170243
0.1520798370 0.3457152609 0.9600344734
0.9681492289 0.3363375300 0.9545556054
0.9983411248 0.6881929034 0.7597385287
0.4015040754 0.8874136952 0.8736445773
0.4037022935 0.8893705138 0.8757769460
0.4192365420 0.9024700112 0.8904333704
0.9582269415 0.9582263810 0.9582230899
0.9985383554 0.8427832942 0.7344630005
0.9979248246 0.9985432358 0.7476111270
0.9979248246 0.9985432358 0.7476205902
0.9979669450 0.9985432358 0.7502765132
0.9985255544 0.9986930611 0.7790926922
0.9985705950 0.9985092260 0.7395566948
0.4582519916 0.7299674797 0.9974836896
0.4583259199 0.7300883944 0.9974836896
0.4609613656 0.7327360264 0.9974836896
0.6385140570 0.7631129068 0.9980618561
0.9988259306 0.7887373911 0.9987615726
0.4583259199 0.7300176943 0.9974836896
0.4585099915 0.7301593444 0.9974836896
0.4610342949 0.7328769270 0.9974836896
0.6382269590 0.7632273198 0.9980618561
0.9988259306 0.7887373911 0.9987615726
0.4593898887 0.7317067526 0.9974836896
0.4594628180 0.7318381599 0.9974836896
0.4620907709 0.7348085642 0.9974836896
0.6341652775 0.7649036319 0.9980267513
0.9988259306 0.7892262862 0.9987615726
0.4950265291 0.7924893552 0.9975916391
0.4950765010 0.7926454656 0.9975916391
0.4976948640 0.7953740037 0.9975916391
0.5822799612 0.8222673956 0.9979183766
0.9988259306 0.7979323539 0.9987615726
0.9984179309 1.0000000000 1.0000000000
0.9984179309 1.0000000000 1.0000000000
0.9985449930 1.0000000000 1.0000000000
0.9991633878 1.0000000000 1.0000000000
1.0000000000 1.0000000000 1.0000000000
