public/luts/apple/BaseLUT - Apple iPhone - Apple Log to Rec709 - Low ISO.cube
TITLE "BaseLUT - Apple iPhone - Apple Log to Rec709 - Low ISO"
# Developed for converting Apple Log / BT.2020 to Rec.709. For use when ISO value is 400 or lower. Version 1.2 - 09/27/2025 - Copyright 2025 Gamut, LLC.
LUT_3D_SIZE 5
0.0000000000 0.0000000000 0.0000000000
0.0016765937 0.0000000000 0.0000000000
0.4867341617 0.0617517773 0.0605833002
0.9908615656 0.2234567527 0.1405377731
0.9976831436 0.6519625327 0.4528962918
0.0000000000 0.0000000000 0.0000000000
0.0482737239 0.0494437472 0.0058942580
0.4918159440 0.0652932664 0.0611697629
0.9910065387 0.2276619148 0.1402547001
0.9976831436 0.6522671356 0.4528223520
0.0464711011 0.3457340550 0.0464410698
0.0500712562 0.3682174398 0.0503960125
0.4248270116 0.4270372932 0.0625928146
0.9916923073 0.3045466178 0.1398338483
0.9976831436 0.6585897715 0.4522258378
0.3030902292 0.8635212917 0.2302281205
0.3044902554 0.8647914515 0.2311436277
0.3232390764 0.8827812975 0.2426369092
0.9437655079 0.9492707037 0.2746656910
0.9976437697 0.7988506898 0.4424383093
0.9843625481 0.9980335492 0.6205231856
0.9843625481 0.9980335492 0.6205231856
0.9848414205 0.9980335492 0.6216439969
0.9917537448 0.9981119853 0.6398329775
0.9984381707 0.9983580309 0.6989991347
0.0000000000 0.0000000000 0.0000000000
0.0653125316 0.0074567041 0.0444450469
0.5148102168 0.0659905666 0.0714708905
0.9921191332 0.2276138244 0.1506254410
0.9976831436 0.6520213025 0.4545484461
0.0020492488 0.0205538058 0.0178714536
0.0891178731 0.0891178731 0.0891178731
0.5221948613 0.0714661368 0.0714708905
0.9921711066 0.2315973194 0.1505578041
0.9976831436 0.6524199372 0.4546223859
0.0510622881 0.3724746437 0.0602510381
0.0543106011 0.3920691053 0.0665019701
0.4418085297 0.4434249959 0.0689509023
0.9927002836 0.3089657708 0.1485747904
0.9976831436 0.6587518263 0.4539182094
0.3074776124 0.8675298742 0.2382245469
0.3087386627 0.8688095390 0.2389826119
0.3270580542 0.8864184370 0.2510697799
0.9456277069 0.9511349294 0.2772012307
0.9976306451 0.7990684635 0.4439670642
0.9844159720 0.9980335492 0.6208715054
0.9844159720 0.9980335492 0.6208715054
0.9848948444 0.9980335492 0.6220422192
0.9917930842 0.9981119853 0.6402880887
0.9984381707 0.9983580309 0.6989991347
0.0547992366 0.0796418374 0.4400169720
0.1119829211 0.0803689111 0.4479875397
0.4821444075 0.0773260102 0.4360615091
0.9958211792 0.2482417436 0.3503073954
0.9977895517 0.6559628841 0.4889008733
0.0543271141 0.1153632214 0.4374902457
0.0714341115 0.1173456003 0.4509743571
0.4860906632 0.0800869386 0.4424308154
0.9959348435 0.2529138427 0.3501532754
0.9977895517 0.6564052835 0.4889008733
0.0560362126 0.3949943579 0.3826356448
0.0578826694 0.4048759096 0.3936673328
0.4416397450 0.4416409076 0.4416400494
0.9963560699 0.3345227873 0.3454874598
0.9977895517 0.6629752530 0.4880877220
0.3299856572 0.8853166146 0.3485818505
0.3311250753 0.8864527048 0.3496324646
0.3478070649 0.9017774732 0.3638647134
0.9557739437 0.9607803836 0.3305001017
0.9977895517 0.8031130832 0.4757014357
0.9856262662 0.9980335492 0.6299862062
0.9856792044 0.9980335492 0.6304018945
0.9860779410 0.9980335492 0.6312327719
0.9925223218 0.9981389284 0.6501745668
0.9984381707 0.9983580309 0.7022091581
0.2137839860 0.4204457913 0.9635156517
0.2316598526 0.4204019748 0.9639363918
0.4646314072 0.4167111243 0.9661955723
0.9812768321 0.3503962335 0.9622561636
0.9983646073 0.6854212941 0.8742079416
0.2091164848 0.4250873344 0.9633547075
0.2263828495 0.4251679567 0.9639157770
0.4608340274 0.4215319394 0.9662656128
0.9813904793 0.3510905313 0.9625306133
0.9983646073 0.6858184478 0.8741439631
0.1774099368 0.4910964840 0.9602401381
0.1836638522 0.4914147982 0.9609936950
0.3951376400 0.4915307983 0.9663080842
0.9825485638 0.3666938853 0.9664660480
0.9983646073 0.6926673429 0.8738623076
0.4164906008 0.9016815954 0.8846074516
0.4172159738 0.9022583605 0.8852624818
0.4278908934 0.9110853627 0.8952588621
0.9584015568 0.9584023559 0.9583967708
0.9989812276 0.8351707625 0.8652576953
0.9931773243 0.9988977859 0.8167716263
0.9931840044 0.9988977859 0.8168727181
0.9934253147 0.9988977859 0.8180115032
0.9965291665 0.9990075301 0.8387955975
0.9988655366 0.9988366754 0.8067269969
0.7227459558 0.9389187000 0.9983329247
0.7238190582 0.9389111991 0.9983901009
0.7384866325 0.9389767071 0.9984186890
0.9761894835 0.9342066294 0.9999337063
0.9989262232 0.8203623666 0.9988574023
0.7225707861 0.9391952335 0.9983901009
0.7235821526 0.9391952335 0.9983901009
0.7382356731 0.9392532405 0.9984186890
0.9761262457 0.9344926640 0.9999337063
0.9989262232 0.8204326162 0.9988574023
0.7198679531 0.9430917054 0.9983329247
0.7209252452 0.9430917054 0.9983329247
0.7353049690 0.9429611896 0.9983901009
0.9746272554 0.9393340003 0.9999461538
0.9989262232 0.8212705934 0.9988574023
0.7124024762 0.9917144336 0.9983329247
0.7128205970 0.9917212384 0.9983329247
0.7188018775 0.9918172617 0.9983329247
0.9333748404 0.9923043481 0.9999271303
0.9990610065 0.8464223179 0.9990192576
0.9991216931 1.0000000000 1.0000000000
0.9990303223 1.0000000000 1.0000000000
0.9991216931 1.0000000000 1.0000000000
0.9993721674 1.0000000000 1.0000000000
1.0000000000 1.0000000000 1.0000000000
