public/luts/apple/BaseLUT - Apple iPhone - Apple Log to Rec709 - Low ISO.cube
TITLE "BaseLUT - Apple iPhone - Apple Log to Rec709 - Low ISO"
# Developed for converting Apple Log / BT.2020 to Rec.709. For use when ISO value is 400 or lower. Version 1.2 - 09/27/2025 - Copyright 2025 Gamut, LLC.
LUT_3D_SIZE 33
0.0000000000 0.0000000000 0.0000000000
0.0000000000 0.0000000000 0.0000000000
0.0000000000 0.0000000000 0.0000000000
0.0000000000 0.0000000000 0.0000000000
0.0000000000 0.0000000000 0.0000000000
0.0000000000 0.0000000000 0.0000000000
0.0000000000 0.0000000000 0.0000000000
0.0000000000 0.0000000000 0.0000000000
0.0016765937 0.0000000000 0.0000000000
0.0167195979 0.0013972312 0.0013972312
0.0638791506 0.0076048019 0.0076048019
0.1402997741 0.0169843943 0.0169843943
0.2210264014 0.0273066530 0.0273066530
0.2964045781 0.0367026125 0.0367026125
0.3634758779 0.0449318756 0.0449318756
0.4256368322 0.0533350188 0.0530011304
0.4867341617 0.0617517773 0.0605833002
0.5480485942 0.0706494924 0.0683300687
0.6122249618 0.0813018972 0.0763703812
0.6852963177 0.0944410765 0.0859795566
0.7624998999 0.1105329640 0.0959276869
0.8355282528 0.1301000568 0.1060905401
0.9075629592 0.1545679083 0.1169016284
0.9653392259 0.1848737257 0.1275674027
0.9908615656 0.2234567527 0.1405377731
0.9954622948 0.2697694892 0.1566967146
0.9964090637 0.3193698275 0.1791274820
0.9969922741 0.3683901364 0.2121941910
0.9972671175 0.4195947499 0.2544712655
0.9973949589 0.4733171636 0.3028445290
0.9974969224 0.5285504873 0.3516347761
0.9975788276 0.5870752424 0.4010921941
0.9976831436 0.6519625327 0.4528962918
0.0000000000 0.0000000000 0.0000000000
0.0000000000 0.0000000000 0.0000000000
0.0000000000 0.0000000000 0.0000000000
0.0000000000 0.0000000000 0.0000000000
0.0000000000 0.0000000000 0.0000000000
0.0000000000 0.0000000000 0.0000000000
0.0000000000 0.0000000000 0.0000000000
0.0000000000 0.0000000000 0.0000000000
0.0023988641 0.0000000000 0.0000000000
0.0226350238 0.0025659459 0.0025659459
0.0779273284 0.0091750531 0.0091750531
0.1522888925 0.0184941266 0.0184941266
0.2272497471 0.0278038510 0.0278038510
0.3009125010 0.0374696376 0.0369997563
0.3657694559 0.0456517620 0.0452574533
0.4268237893 0.0536451072 0.0530011304
0.4872732422 0.0620319722 0.0605833002
0.5483803257 0.0709344673 0.0683300687
0.6125217112 0.0814998033 0.0763703812
0.6854800563 0.0946012654 0.0859795566
0.7626290233 0.1108796792 0.0959276869
0.8355933781 0.1303962262 0.1060905401
0.9076270349 0.1549004653 0.1169016284
0.9653629401 0.1852932315 0.1275674027
0.9908812353 0.2237577879 0.1404696351
0.9954622948 0.2700676888 0.1566967146
0.9964090637 0.3195995536 0.1789529850
0.9969922741 0.3684977164 0.2121883985
0.9972671175 0.4196674853 0.2544590739
0.9973949589 0.4733915035 0.3028340341
0.9974969224 0.5286066968 0.3517221712
0.9975788276 0.5871817451 0.4010921941
0.9976831436 0.6520095486 0.4529702315
0.0000000000 0.0000000000 0.0000000000
0.0000000000 0.0000000000 0.0000000000
0.0000000000 0.0000000000 0.0000000000
0.0000000000 0.0000000000 0.0000000000
0.0000000000 0.0000000000 0.0000000000
0.0000000000 0.0000000000 0.0000000000
0.0000000000 0.0000000000 0.0000000000
0.0000000000 0.0000000000 0.0000000000
0.0050307262 0.0000000000 0.0000000000
0.0296654298 0.0033787392 0.0033787392
0.0875164255 0.0104926398 0.0104926398
0.1595517935 0.0195001490 0.0195001490
0.2332641890 0.0288492919 0.0283514629
0.3053074590 0.0377664362 0.0377664362
0.3678001333 0.0459278157 0.0456517620
0.4278478877 0.0539768690 0.0530011304
0.4876823565 0.0620319722 0.0605833002
0.5487898509 0.0711718421 0.0683300687
0.6128743725 0.0819360225 0.0763703812
0.6856671941 0.0950118081 0.0859795566
0.7627648007 0.1112254518 0.0959276869
0.8357354105 0.1306918007 0.1060905401
0.9077177434 0.1553963628 0.1169016284
0.9654382247 0.1857107990 0.1275674027
0.9909369662 0.2241381598 0.1404696351
0.9954622948 0.2702347869 0.1566802515
0.9964090637 0.3199086340 0.1791659809
0.9969922741 0.3686671634 0.2120377933
0.9972671175 0.4199083508 0.2547438682
0.9973949589 0.4735194466 0.3028264127
0.9974969224 0.5286158254 0.3516353382
0.9975788276 0.5872299190 0.4010921941
0.9976831436 0.6520095486 0.4529702315
0.0000000000 0.0000000000 0.0000000000
0.0000000000 0.0000000000 0.0000000000
0.0000000000 0.0000000000 0.0000000000
0.0000000000 0.0000000000 0.0000000000
0.0000000000 0.0000000000 0.0000000000
0.0000000000 0.0000000000 0.0000000000
0.0000000000 0.0000000000 0.0000000000
0.0000000000 0.0000000000 0.0000000000
0.0067776077 0.0007618185 0.0007618185
0.0381317347 0.0041158114 0.0041158114
0.0974112012 0.0114271202 0.0114271202
0.1679753421 0.0203145323 0.0203145323
0.2394356069 0.0296206428 0.0291228139
0.3088786715 0.0382792194 0.0382792194
0.3692501985 0.0459738247 0.0459048112
0.4287029347 0.0539768690 0.0530011304
0.4883611834 0.0623292477 0.0608276493
0.5491442448 0.0714552219 0.0683300687
0.6131278656 0.0819659211 0.0765796714
0.6859496314 0.0954209434 0.0859795566
0.7628922606 0.1116977310 0.0959276869
0.8358811537 0.1311152488 0.1060905401
0.9077527735 0.1556687220 0.1169016284
0.9654247551 0.1861831377 0.1275674027
0.9909580929 0.2245707550 0.1402815670
0.9954622948 0.2703827139 0.1564688589
0.9964090637 0.3200575642 0.1789669448
0.9969922741 0.3687750870 0.2120551708
0.9972671175 0.4199880655 0.2547220863
0.9973949589 0.4735983079 0.3028445290
0.9974969224 0.5287232113 0.3516347761
0.9975788276 0.5872348398 0.4010185050
0.9976831436 0.6520095486 0.4528223520
0.0000000000 0.0000000000 0.0000000000
0.0000000000 0.0000000000 0.0000000000
0.0000000000 0.0000000000 0.0000000000
0.0000000000 0.0000000000 0.0000000000
0.0000000000 0.0000000000 0.0000000000
0.0000000000 0.0000000000 0.0000000000
0.0000000000 0.0000000000 0.0000000000
0.0000000000 0.0000000000 0.0000000000
0.0085952303 0.0000000000 0.0000000000
0.0457632518 0.0053606983 0.0053606983
0.1071595766 0.0129361841 0.0129361841
0.1756514028 0.0212600045 0.0212600045
0.2448207132 0.0298943541 0.0298943541
0.3117638311 0.0386011252 0.0386011252
0.3705331461 0.0463641789 0.0459738247
0.4295308334 0.0542841427 0.0533112188
0.4888981323 0.0626108877 0.0608840375
0.5495337100 0.0716916585 0.0683300687
0.6134601267 0.0824300373 0.0765796714
0.6862134205 0.0958278895 0.0859795566
0.7630667374 0.1120872436 0.0959276869
0.8359465264 0.1316829460 0.1060905401
0.9078363069 0.1561434176 0.1169016284
0.9654512201 0.1865987044 0.1275674027
0.9909934255 0.2249098618 0.1402547001
0.9954622948 0.2707828675 0.1566637884
0.9964090637 0.3203458344 0.1790995625
0.9969922741 0.3689677186 0.2119045656
0.9972671175 0.4201301874 0.2545868506
0.9973949589 0.4737156489 0.3028340341
0.9974969224 0.5287851419 0.3516347761
0.9975788276 0.5872379740 0.4010103417
0.9976831436 0.6520095486 0.4528223520
0.0000000000 0.0000000000 0.0000000000
0.0000000000 0.0000000000 0.0000000000
0.0000000000 0.0000000000 0.0000000000
0.0000000000 0.0000000000 0.0000000000
0.0000000000 0.0000000000 0.0000000000
0.0000000000 0.0000000000 0.0000000000
0.0000000000 0.0000000000 0.0000000000
0.0017464517 0.0000000000 0.0000000000
0.0134175655 0.0012195283 0.0012195283
0.0559414816 0.0062757956 0.0062757956
0.1172027225 0.0142058636 0.0142058636
0.1826248884 0.0220326316 0.0220326316
0.2490905605 0.0306651372 0.0306651372
0.3137223591 0.0392553876 0.0386011252
0.3717736682 0.0466827266 0.0459738247
0.4301573090 0.0546132461 0.0536451072
0.4894013827 0.0628133410 0.0608840375
0.5499622090 0.0722084725 0.0685758876
0.6137695003 0.0828175931 0.0768617064
0.6864729061 0.0962338347 0.0859795566
0.7632798507 0.1124410602 0.0959276869
0.8360791889 0.1320242343 0.1060905401
0.9078816768 0.1564259194 0.1169016284
0.9655279277 0.1870134271 0.1275674027
0.9909336879 0.2253923947 0.1402547001
0.9954622948 0.2710506998 0.1565352143
0.9964090637 0.3204944512 0.1789424057
0.9969922741 0.3690634563 0.2120377933
0.9972671175 0.4202097143 0.2545631882
0.9973949589 0.4737457091 0.3027530730
0.9974969224 0.5287965214 0.3516347761
0.9975788276 0.5872920403 0.4010078395
0.9976831436 0.6520565644 0.4528223520
0.0000000000 0.0000000000 0.0000000000
0.0000000000 0.0000000000 0.0000000000
0.0000000000 0.0000000000 0.0000000000
0.0000000000 0.0000000000 0.0000000000
0.0000000000 0.0000000000 0.0000000000
0.0000000000 0.0000000000 0.0000000000
0.0000000000 0.0000000000 0.0000000000
0.0108747207 0.0040903885 0.0000000000
0.0348205032 0.0061996556 0.0041158759
0.0716896882 0.0093907725 0.0086957677
0.1250118230 0.0151882817 0.0151882817
0.1881330783 0.0228036039 0.0228036039
0.2523889971 0.0314366143 0.0307894367
0.3156475830 0.0393791975 0.0387744591
0.3729127597 0.0470691265 0.0459738247
0.4310799453 0.0547959215 0.0536451072
0.4901547223 0.0631833517 0.0608840375
0.5504186298 0.0726233936 0.0685758876
0.6140815814 0.0832628819 0.0768617064
0.6866971221 0.0966387792 0.0859795566
0.7634384145 0.1130779302 0.0961853903
0.8362376418 0.1325686989 0.1062652858
0.9080128360 0.1571438950 0.1169016284
0.9655257776 0.1874821706 0.1275674027
0.9909386053 0.2257968432 0.1402547001
0.9954622948 0.2713299473 0.1564964743
0.9964090637 0.3207954457 0.1789460052
0.9969922741 0.3693012070 0.2120116335
0.9972671175 0.4203651064 0.2544712655
0.9973949589 0.4738608361 0.3028111701
0.9974969224 0.5289038135 0.3515524705
0.9975788276 0.5873969759 0.4010078395
0.9976831436 0.6520565644 0.4528223520
0.0000000000 0.0000000000 0.0000000000
0.0000000000 0.0000000000 0.0000000000
0.0000000000 0.0000000000 0.0000000000
0.0000000000 0.0000000000 0.0000000000
0.0000000000 0.0000000000 0.0000000000
0.0000000000 0.0000000000 0.0000000000
0.0012111292 0.0078640130 0.0000000000
0.0194192788 0.0198112577 0.0020828453
0.0464355394 0.0242466139 0.0051071454
0.0830651947 0.0231271928 0.0097499403
0.1303861754 0.0212350738 0.0155714791
0.1890734102 0.0245704235 0.0229529526
0.2537720331 0.0322074605 0.0312872657
0.3169424374 0.0401520914 0.0393791975
0.3740107811 0.0477681739 0.0463641789
0.4321907119 0.0557290640 0.0536451072
0.4907986597 0.0639157733 0.0608840375
0.5509728721 0.0731183779 0.0685758876
0.6146939693 0.0840014647 0.0768617064
0.6870384045 0.0973524673 0.0859795566
0.7636491738 0.1137679984 0.0961853903
0.8363967440 0.1334585848 0.1060905401
0.9080899461 0.1578362252 0.1169016284
0.9656349894 0.1882660671 0.1275674027
0.9909876885 0.2266081196 0.1403228380
0.9954923824 0.2719588404 0.1566967146
0.9964090637 0.3212024652 0.1790401240
0.9969922741 0.3695967629 0.2120377933
0.9972671175 0.4206059405 0.2544543414
0.9973949589 0.4740055555 0.3027131235
0.9974969224 0.5289665569 0.3516066124
0.9975788276 0.5874525780 0.4010053373
0.9976831436 0.6521495959 0.4528223520
0.0000000000 0.0000000000 0.0000000000
0.0000000000 0.0000000000 0.0000000000
0.0000000000 0.0000000000 0.0000000000
0.0011179654 0.0012195283 0.0012195283
0.0011179654 0.0032515600 0.0012195283
0.0008613662 0.0090795727 0.0009396181
0.0019094145 0.0226295846 0.0020828776
0.0139676716 0.0396622499 0.0042936432
0.0482737239 0.0494437472 0.0058942580
0.0876007107 0.0502601865 0.0105169428
0.1340304150 0.0454479542 0.0163378132
0.1884035890 0.0374743766 0.0229529526
0.2517089096 0.0373458591 0.0307894367
0.3169456960 0.0429135388 0.0393791975
0.3748093019 0.0497808797 0.0465462062
0.4330268989 0.0570872919 0.0536451072
0.4918159440 0.0652932664 0.0611697629
0.5516962886 0.0744908670 0.0687298529
0.6153332429 0.0852431944 0.0768617064
0.6876711989 0.0988300394 0.0859795566
0.7639961499 0.1151813483 0.0961853903
0.8367116707 0.1346586674 0.1062419864
0.9082755305 0.1591475254 0.1169016284
0.9656559211 0.1892956523 0.1275674027
0.9910065387 0.2276619148 0.1402547001
0.9955040831 0.2726878423 0.1564451645
0.9964090637 0.3217550301 0.1789075063
0.9969922741 0.3699356569 0.2118552358
0.9972671175 0.4208982278 0.2544543414
0.9973949589 0.4742786858 0.3027131235
0.9974969224 0.5291298397 0.3516230360
0.9975788276 0.5875986353 0.4010296084
0.9976831436 0.6522671356 0.4528223520
0.0000000000 0.0019812180 0.0000000000
0.0000000000 0.0025405551 0.0000000000
0.0000000000 0.0052590709 0.0000000000
0.0006750977 0.0099176614 0.0007364278
0.0012808691 0.0172965967 0.0013972312
0.0030973561 0.0291972043 0.0033787392
0.0051938367 0.0464258799 0.0056656770
0.0075405387 0.0660294410 0.0080913241
0.0326582987 0.0776142689 0.0090071498
0.0824235322 0.0841208714 0.0105169428
0.1328646804 0.0817148167 0.0163138444
0.1873068842 0.0725535573 0.0229529526
0.2470710668 0.0588724816 0.0299939199
0.3135957783 0.0535563810 0.0386011252
0.3739107059 0.0561044852 0.0463641789
0.4335488160 0.0613115523 0.0536451072
0.4925957094 0.0683625005 0.0611697629
0.5524263704 0.0771439916 0.0688667108
0.6162006350 0.0876380527 0.0768617064
0.6883697924 0.1008044722 0.0861551952
0.7645038868 0.1171168449 0.0963328816
0.8371202033 0.1366132791 0.1063351841
0.9085799917 0.1609730616 0.1169016284
0.9658020954 0.1909629212 0.1275674027
0.9910504313 0.2291910732 0.1402547001
0.9955040831 0.2739825634 0.1565153469
0.9964090637 0.3226200602 0.1789460052
0.9969922741 0.3704328431 0.2117248110
0.9972671175 0.4213318545 0.2544543414
0.9973949589 0.4746579936 0.3027235248
0.9974969224 0.5293138807 0.3515620250
0.9975788276 0.5877835263 0.4009833495
0.9976831436 0.6523714521 0.4528962918
0.0000000000 0.0100135670 0.0000000000
0.0012342872 0.0145890307 0.0013464175
0.0019560850 0.0210354803 0.0021337879
0.0031904313 0.0318845973 0.0034802699
0.0051705014 0.0459752056 0.0056402218
0.0066379935 0.0609068055 0.0072314172
0.0088569228 0.0764988576 0.0093906206
0.0115041256 0.0946152139 0.0118103176
0.0151993615 0.1124941642 0.0140857157
0.0580622486 0.1202216089 0.0148047805
0.1222632931 0.1240964813 0.0155714791
0.1817384523 0.1180074197 0.0224060033
0.2430095528 0.1045333275 0.0299939199
0.3067977570 0.0860418245 0.0378158974
0.3699971216 0.0762517877 0.0458818068
0.4325228410 0.0737598840 0.0536451072
0.4927628222 0.0763213425 0.0611697629
0.5532124706 0.0825310232 0.0688667108
0.6172027072 0.0920197286 0.0770701208
0.6892424886 0.1045997922 0.0864243763
0.7652885142 0.1204405314 0.0963328816
0.8376206100 0.1396739168 0.1063351841
0.9089478705 0.1637893093 0.1169016284
0.9659977217 0.1935926244 0.1275674027
0.9910872816 0.2312746498 0.1401868127
0.9955040831 0.2758118859 0.1564451645
0.9964090637 0.3237218367 0.1787988956
0.9969922741 0.3714233098 0.2117306035
0.9972671175 0.4218564944 0.2543218323
0.9973949589 0.4751080241 0.3026017084
0.9974969224 0.5295938969 0.3514696654
0.9975788276 0.5880106046 0.4009781262
0.9976831436 0.6525756773 0.4528962918
0.0037030980 0.0359882497 0.0040395104
0.0044488808 0.0450049062 0.0048530448
0.0063816897 0.0574435417 0.0069572162
0.0078610641 0.0711988009 0.0085040474
0.0103769598 0.0866204060 0.0107800227
0.0120279095 0.1001067342 0.0122890866
0.0139673060 0.1138190913 0.0140618076
0.0156189537 0.1287127665 0.0155715095
0.0181083233 0.1449579479 0.0178469379
0.0249130841 0.1626402727 0.0201229070
0.0882982037 0.1667529103 0.0208388300
0.1668269307 0.1686334304 0.0216343684
0.2342047271 0.1595975561 0.0291725337
0.3002531791 0.1419973152 0.0370245182
0.3624537781 0.1188175216 0.0451876867
0.4275118491 0.1050150580 0.0530011304
0.4911150485 0.0978263725 0.0611697629
0.5533930785 0.0967584987 0.0691106533
0.6181670639 0.1015978169 0.0771791443
0.6903508455 0.1118413316 0.0864243763
0.7661803259 0.1264662750 0.0963328816
0.8384268828 0.1448994066 0.1063351841
0.9094791813 0.1682495742 0.1169016284
0.9661948658 0.1975130793 0.1275674027
0.9911531509 0.2345460237 0.1401868127
0.9955040831 0.2784219066 0.1562815814
0.9964090637 0.3254180803 0.1787638397
0.9969922741 0.3727514832 0.2115271806
0.9972671175 0.4228022107 0.2542072815
0.9973949589 0.4757760848 0.3025226215
0.9974969224 0.5301339527 0.3514319472
0.9975788276 0.5883802299 0.4008366282
0.9976831436 0.6527748383 0.4527985901
0.0095385731 0.0827557943 0.0100136886
0.0111895561 0.0951391273 0.0115227829
0.0133646554 0.1074111447 0.0135109499
0.0150162698 0.1212640697 0.0150206214
0.0168767331 0.1345133537 0.0167211929
0.0186328385 0.1458165326 0.0183263752
0.0197600042 0.1565705623 0.0193566702
0.0213710697 0.1684576318 0.0208626208
0.0233863844 0.1820538553 0.0229280296
0.0256894071 0.1993459484 0.0253660350
0.0380987197 0.2158864955 0.0276053504
0.1244468498 0.2173494213 0.0276053504
0.2157490115 0.2172041667 0.0284012458
0.2896072410 0.2056612407 0.0362074042
0.3547948590 0.1841850535 0.0444872270
0.4186087952 0.1569356684 0.0519488314
0.4855795760 0.1399653418 0.0605076155
0.5514487646 0.1284784674 0.0687811746
0.6180666363 0.1235228664 0.0773504670
0.6911143338 0.1268295436 0.0865996083
0.7672423771 0.1374323627 0.0964357128
0.8393899386 0.1536175578 0.1064575370
0.9101787495 0.1754379688 0.1169016284
0.9664701086 0.2035490775 0.1275674027
0.9912440322 0.2395221051 0.1401868127
0.9955040831 0.2822609726 0.1561416459
0.9964090637 0.3280362372 0.1784127799
0.9969922741 0.3747316042 0.2113762328
0.9972671175 0.4243063994 0.2540624554
0.9973949589 0.4767284080 0.3022934818
0.9974969224 0.5309252947 0.3513295960
0.9975788276 0.5890152030 0.4008150469
0.9976831436 0.6531705658 0.4527942499
0.0179773441 0.1444224811 0.0177272153
0.0196287259 0.1555083820 0.0192366742
0.0212471752 0.1666978325 0.0207436666
0.0230955361 0.1780060107 0.0226295531
0.0241623691 0.1889432975 0.0237243667
0.0253743035 0.1972470213 0.0249680873
0.0262715955 0.2045054255 0.0258889131
0.0271923127 0.2131505441 0.0268337786
0.0287196580 0.2248103934 0.0284011827
0.0310226807 0.2392043823 0.0307646083
0.0333986230 0.2572406973 0.0332028661
0.0561907407 0.2722947880 0.0354407614
0.1649039301 0.2717772623 0.0354159998
0.2679366001 0.2694946514 0.0362321348
0.3438278991 0.2559085665 0.0437801140
0.4098288983 0.2310437466 0.0513117662
0.4756531854 0.2003347176 0.0593978649
0.5450243811 0.1800357009 0.0679688774
0.6150012652 0.1652660615 0.0768617064
0.6904912378 0.1572245873 0.0864243763
0.7679642945 0.1588671978 0.0967367003
0.8402539150 0.1691710791 0.1065502390
0.9109992624 0.1874564419 0.1169016284
0.9669272551 0.2130854828 0.1274691147
0.9912817325 0.2470843758 0.1401868127
0.9955040831 0.2879745522 0.1560382341
0.9964090637 0.3319889366 0.1782054493
0.9969922741 0.3774923126 0.2110650256
0.9972671175 0.4264298089 0.2537680707
0.9973949589 0.4783109361 0.3021755074
0.9974969224 0.5320447654 0.3512223114
0.9975788276 0.5898524624 0.4007447358
0.9976831436 0.6539011563 0.4527333620
0.0273621612 0.2118617613 0.0270080819
0.0281377770 0.2208231100 0.0278040403
0.0296412360 0.2296414519 0.0293469315
0.0307317710 0.2382256658 0.0304660687
0.0315806138 0.2452420194 0.0313371747
0.0323557993 0.2510615168 0.0321326915
0.0331319685 0.2564094790 0.0329292179
0.0340771562 0.2624762448 0.0338991957
0.0352679430 0.2708091691 0.0351186728
0.0371521875 0.2832594643 0.0370244241
0.0392140227 0.2979393521 0.0391078828
0.0417288740 0.3156584847 0.0416376534
0.0794096542 0.3280455766 0.0434712640
0.2096034369 0.3263257649 0.0434712640
0.3201681197 0.3227487131 0.0442055242
0.3970825916 0.3079484645 0.0510357047
0.4661446558 0.2810994483 0.0590672290
0.5347063187 0.2477008282 0.0671956111
0.6074666211 0.2251426122 0.0763073315
0.6864993505 0.2078173930 0.0861551952
0.7669962454 0.1970856106 0.0967367003
0.8406610251 0.1970810423 0.1067008797
0.9117102358 0.2079627726 0.1169016284
0.9674089379 0.2285310188 0.1274825942
0.9914171742 0.2586707729 0.1399703746
0.9955458715 0.2965320377 0.1558362692
0.9964090637 0.3378068365 0.1776776076
0.9969471427 0.3816814314 0.2106281896
0.9972671175 0.4295437215 0.2534728086
0.9973949589 0.4805468065 0.3019355292
0.9974969224 0.5336594306 0.3510125508
0.9975788276 0.5908991541 0.4005302993
0.9976831436 0.6549074025 0.4525985343
0.0365397802 0.2809465174 0.0364055942
0.0377336606 0.2876779789 0.0376119955
0.0388232473 0.2933047795 0.0387130092
0.0391663171 0.2982683481 0.0390596769
0.0399087343 0.3023013727 0.0398098802
0.0404015672 0.3058331282 0.0403078816
0.0407691420 0.3092763693 0.0406793114
0.0415274921 0.3141416927 0.0414456146
0.0422764936 0.3200020288 0.0425892792
0.0435358449 0.3277870799 0.0434750301
0.0456706049 0.3394144805 0.0456321784
0.0477433416 0.3531388974 0.0477266528
0.0511906081 0.3697879259 0.0505196725
0.1072270406 0.3812609541 0.0523734477
0.2577664849 0.3787476828 0.0520363692
0.3715515171 0.3740971231 0.0526886964
0.4521503977 0.3588562522 0.0594169112
0.5238132739 0.3319343727 0.0669869465
0.5958145759 0.2980775210 0.0753750225
0.6779604763 0.2744303789 0.0854744393
0.7629809585 0.2553440868 0.0962684558
0.8393447591 0.2428521793 0.1066313532
0.9117560444 0.2417972146 0.1170032536
0.9678142610 0.2530941687 0.1272565316
0.9915645756 0.2768515346 0.1398338483
0.9955458715 0.3094357516 0.1553782797
0.9964090637 0.3463980476 0.1772788468
0.9969471427 0.3878702313 0.2100549804
0.9972671175 0.4340194192 0.2529311759
0.9973949589 0.4836614399 0.3014622258
0.9974969224 0.5360552150 0.3508092535
0.9975788276 0.5926309988 0.4003163946
0.9976831436 0.6563876213 0.4524445035
0.0464711011 0.3457340550 0.0464410698
0.0471687944 0.3490705312 0.0471460801
0.0474809923 0.3516021850 0.0477989930
0.0478595306 0.3539202326 0.0478440604
0.0481245199 0.3559798890 0.0485355128
0.0485438067 0.3580523992 0.0485355128
0.0488958217 0.3604439736 0.0492311779
0.0494291404 0.3637372283 0.0494280917
0.0500712562 0.3682174398 0.0503960125
0.0513820717 0.3741448357 0.0513820717
0.0526714328 0.3821822109 0.0529856807
0.0549839136 0.3939566004 0.0549839136
0.0574288113 0.4083129006 0.0574288113
0.0625860371 0.4254959231 0.0606794386
0.1397870612 0.4362438258 0.0625928146
0.3070522020 0.4328498946 0.0620146012
0.4248270116 0.4270372932 0.0625928146
0.5085142948 0.4108475832 0.0685791715
0.5833991885 0.3825018574 0.0759392287
0.6645036833 0.3490128607 0.0848521358
0.7535397252 0.3249725747 0.0958758961
0.8348966678 0.3060044940 0.1063351841
0.9101633338 0.2929636562 0.1170032536
0.9677378064 0.2917086135 0.1272565316
0.9916923073 0.3045466178 0.1398338483
0.9955458715 0.3281505988 0.1550160779
0.9963923484 0.3592299533 0.1767940116
0.9969471427 0.3972484139 0.2091929556
0.9972671175 0.4407768720 0.2522638665
0.9973949589 0.4885450434 0.3009157702
0.9974969224 0.5396021388 0.3502606224
0.9975788276 0.5954034547 0.4000529781
0.9976831436 0.6585897715 0.4522258378
0.0567819885 0.4036058556 0.0567819885
0.0567819885 0.4053087607 0.0573769579
0.0573967861 0.4068719137 0.0573967861
0.0573967861 0.4082992746 0.0579471265
0.0577306745 0.4095927454 0.0580060480
0.0580060480 0.4109275307 0.0582402328
0.0582207174 0.4127231673 0.0586117759
0.0586117759 0.4150993521 0.0592124999
0.0593853238 0.4184919202 0.0596555370
0.0602293960 0.4233175552 0.0608186422
0.0615153555 0.4295454116 0.0619647834
0.0634658558 0.4380756992 0.0634658558
0.0660147732 0.4501625713 0.0662290672
0.0694576458 0.4650674187 0.0692174563
0.0775603201 0.4824580638 0.0730529826
0.1772482180 0.4923751666 0.0753738622
0.3570063385 0.4886839941 0.0741511615
0.4791516756 0.4822524755 0.0744276296
0.5666340038 0.4650574333 0.0792414277
0.6496269531 0.4349995001 0.0864710381
0.7391553139 0.4001873548 0.0957462313
0.8260516639 0.3759892554 0.1060905401
0.9058730855 0.3568750640 0.1170563899
0.9667846221 0.3440856607 0.1275674027
0.9916420706 0.3434492836 0.1398338483
0.9956261051 0.3552999150 0.1547053552
0.9963656038 0.3787435895 0.1759938570
0.9969346062 0.4111591724 0.2083027468
0.9972671175 0.4508497086 0.2511665918
0.9973949589 0.4957352010 0.3002839181
0.9974969224 0.5447911448 0.3497662268
0.9975788276 0.5991721092 0.3996723347
0.9976831436 0.6618314604 0.4519322332
0.0685011099 0.4610218401 0.0690371578
0.0687956548 0.4620810106 0.0690371578
0.0690371578 0.4631727121 0.0693118746
0.0690371578 0.4641510891 0.0695690775
0.0695690775 0.4651944651 0.0698085790
0.0695690775 0.4662770604 0.0700985578
0.0700985578 0.4674703352 0.0703019683
0.0705056915 0.4691915732 0.0706243476
0.0710125914 0.4715258978 0.0713153303
0.0718175078 0.4748345196 0.0720342413
0.0730453203 0.4796855059 0.0731764237
0.0745485236 0.4862125375 0.0748698323
0.0768228007 0.4949200231 0.0769168124
0.0802400907 0.5071946780 0.0799662183
0.0845264414 0.5223746112 0.0836905944
